!!!!SEGMENT: pl-cz--iii-563--001-008_raszek-waclaw--missa-ex-dis-benedictus.krn
!!!cenid: 17xx:1077
!!!COM: Raszek, Wacław
!!!COM-rismid: pe30020314
!!!CDT: <1848->1848
!!!CNT:
!!!OPR: Missa ex Dis
!!!OTL: Benedictus
!!!OMV: 008
!!!PDT:
!!!AGN: Sacred; Mass
!!!SMS-siglum: PL-CZ
!!!SMS-shelfmark: III-563
!!!SMS-shelfwork: 001-008 M
!!!SMS-variant:
!!!SMS-altvar:
!!!NIFC-rismid: 300001050
!!!system-decoration: [(s1,s2)][(s3,s4)][(s5,s6,s7,s8)][(s9,s10,s11)][(s12)]
!!!AIN: 1 alto 1 cor 5 empty 1 organ 1 tenor 2 violn 1 vox
!!!key:
**kern	**dynam	**kern	**dynam	**kern	**dynam	**kern	**dynam	**kern	**kern	**kern	**kern	**text	**kern	**dynam	**kern	**dynam	**kern	**dynam	**kern
*part12	*part12	*part11	*part11	*part10	*part10	*part9	*part9	*part8	*part7	*part6	*part5	*part5	*part4	*part4	*part3	*part3	*part2	*part2	*part1
*staff12	*	*staff11	*	*staff10	*	*staff9	*	*staff8	*staff7	*staff6	*staff5	*staff5	*staff4	*	*staff3	*	*staff2	*	*staff1
*Iorgan	*	*Iempty	*	*Ivioln	*	*Ivioln	*	*Iempty	*Itenor	*Ialto	*Ivox	*	*Icor	*	*Iempty	*	*Iempty	*	*Iempty
*I"Organo.	*	*I"Viola obligata.	*	*I"Violino 2.do	*	*I"Violino Primo	*	*I"Baſso.	*I"Tenore.	*I"Alto.	*I"Canto.	*	*I"Corno Secundo in Dis	*	*I"Cornu Primo in Dis.	*	*I"Clarinetto Secondo. in: B	*	*
*I'Org	*	*I'Vla oblig	*	*I'Vl II	*	*I'Vl I	*	*I'B	*I'T	*I'A	*I'S	*	*I'Cor II in D#	*	*I'Cor I in D#	*	*I'Cl II in B♭	*	*I'Cl I in B♭
*clefF4	*	*clefC3	*	*clefG2	*	*clefG2	*	*clefF4	*clefC4	*clefC3	*clefC1	*	*clefG2	*	*clefG2	*	*clefG2	*	*clefG2
*	*	*	*	*	*	*	*	*	*ITrd0c0	*	*	*	*ITrd5c9	*	*ITrd5c9	*	*ITrd1c2	*	*ITrd1c2
*k[b-e-a-]	*	*k[b-e-a-]	*	*k[b-e-a-]	*	*k[b-e-a-]	*	*k[b-e-a-]	*k[b-e-a-]	*k[b-e-a-]	*k[b-e-a-]	*	*k[b-e-a-]	*	*k[b-e-a-]	*	*k[b-e-a-]	*	*k[b-e-a-]
*E-:	*	*E-:	*	*E-:	*	*E-:	*	*E-:	*E-:	*E-:	*E-:	*	*E-:	*	*E-:	*	*E-:	*	*E-:
*M2/4	*	*M2/4	*	*M2/4	*	*M2/4	*	*M2/4	*M2/4	*M2/4	*M2/4	*	*M2/4	*	*M2/4	*	*M2/4	*	*M2/4
=1	=1	=1	=1	=1	=1	=1	=1	=1	=1	=1	=1	=1	=1	=1	=1	=1	=1	=1	=1
*2\right	*	*2\right	*	*2\right	*	*2\right	*	*	*	*	*	*	*	*	*	*	*	*	*
!	!	!	!	!	!	!	!	!	!	!	!	!	!	!	!	!	!	!	!LO:TX:a:t=P:problem=w źródle brak partii Clarinetto Primo.
!LO:TX:a:Bi:t=Solo	!	!	!	!	!	!	!	!	!	!	!	!	!	!	!	!	!LO:TX:t=P:p=p::global:problem	!	!
!LO:TX:t=P:znaki:problem= A- zamiast AA-	!	!LO:TX:t=P:problem=kolejność znaków&colon; B- a- e- [a- zamiast A-]	!	!	!	!	!	!	!	!	!LO:TX:t=P:problem=kolejność znaków&colon; e- b- a-	!	!	!	!LO:TX:a:Bi:t=and.	!	!LO:TX:a:Bi:t=Andante.	!	!
!LO:TX:a:Bi:t=and&colon;	!	!LO:TX:a:Bi:t=anda&colon;	!	!LO:TX:a:Bi:t=andante	!	!LO:TX:a:Bi:t=andante	!	!LO:TX:a:Bi:t=Tacet.	!LO:TX:a:Bi:t=Tacet.	!LO:TX:a:Bi:t=Tacet.	!LO:TX:a:Bi:t=and&colon;	!	!LO:TX:a:t=4	!	!LO:TX:a:t=in Dis	!	!LO:TX:b:t=4.	!	!
8E-\L	.	16E-/LL	p	16g/LL	.	4.b-\	.	2ryy	2ryy	2ryy	0r	.	0r	.	0r	.	0r	.	2ryy
.	.	16G/	.	16e-/	.	.	.	.	.	.	.	.	.	.	.	.	.	.	.
8E-\	.	16E-/	.	16g/	.	.	.	.	.	.	.	.	.	.	.	.	.	.	.
.	.	16G/JJ	.	16e-/JJ	.	.	.	.	.	.	.	.	.	.	.	.	.	.	.
8E-\	.	8E-/L	.	16g/LL	.	.	.	.	.	.	.	.	.	.	.	.	.	.	.
.	.	.	.	16e-/	.	.	.	.	.	.	.	.	.	.	.	.	.	.	.
8E-\J	.	16G/L	.	16g/	.	16ee-\LL	.	.	.	.	.	.	.	.	.	.	.	.	.
.	.	16e-/JJ	.	16a-/JJ	.	16cc\JJ	.	.	.	.	.	.	.	.	.	.	.	.	.
=2	=2	=2	=2	=2	=2	=2	=2	=2	=2	=2	=2	=2	=2	=2	=2	=2	=2	=2	=2
8E-\L	.	8e-\L	.	8.g/L	.	8.b-/L	.	2ryy	2ryy	2ryy	.	.	.	.	.	.	.	.	2ryy
8BB-\	.	8B-\	.	.	.	.	.	.	.	.	.	.	.	.	.	.	.	.	.
.	.	.	.	16f/K	.	16a-/K	.	.	.	.	.	.	.	.	.	.	.	.	.
8E-\J	.	8e-\J	.	8e-/	.	8g/	.	.	.	.	.	.	.	.	.	.	.	.	.
8r	.	8r	.	8g/J	.	8b-/J	.	.	.	.	.	.	.	.	.	.	.	.	.
=3	=3	=3	=3	=3	=3	=3	=3	=3	=3	=3	=3	=3	=3	=3	=3	=3	=3	=3	=3
8E-\	.	8e-\	.	16g/LL	.	16b-/LL	.	2ryy	2ryy	2ryy	.	.	.	.	.	.	.	.	2ryy
.	.	.	.	16e-/	.	16g/	.	.	.	.	.	.	.	.	.	.	.	.	.
8r	.	8r	.	16a-/	.	16cc/	.	.	.	.	.	.	.	.	.	.	.	.	.
.	.	.	.	16f/JJ	.	16a-/JJ	.	.	.	.	.	.	.	.	.	.	.	.	.
!	!	!LO:TX:t=P:problem=mixed beam	!	!	!	!	!	!	!	!	!	!	!	!	!	!	!	!	!
8E-\L	.	8e-\L	.	8e-/L	.	16g/LL	.	.	.	.	.	.	.	.	.	.	.	.	.
.	.	.	.	.	.	16e-/	.	.	.	.	.	.	.	.	.	.	.	.	.
8A-\J	.	8A-/J	.	8c/J	.	16a-/	.	.	.	.	.	.	.	.	.	.	.	.	.
.	.	.	.	.	.	16f/JJ	.	.	.	.	.	.	.	.	.	.	.	.	.
=4	=4	=4	=4	=4	=4	=4	=4	=4	=4	=4	=4	=4	=4	=4	=4	=4	=4	=4	=4
!LO:TX:t=P:problem=mixed beam	!	!	!	!	!	!	!	!	!	!	!	!	!LO:TX:a:t=[segno]:problem=znak segno na kresce taktowej	!	!LO:TX:a:t=[segno]:problem=znak segno na kresce taktowej	!	!LO:TX:a:t=[segno]:problem=znak segno na kresce taktowej	!	!
8B-\L	.	8B-/L	.	8B-/L	.	16e-/LL	.	2ryy	2ryy	2ryy	.	.	.	.	.	.	.	.	2ryy
.	.	.	.	.	.	16d/	.	.	.	.	.	.	.	.	.	.	.	.	.
8BB-/	.	8B-/	.	8f/J	.	16B-/	.	.	.	.	.	.	.	.	.	.	.	.	.
.	.	.	.	.	.	16a-/JJ	.	.	.	.	.	.	.	.	.	.	.	.	.
8E-/J	.	8B-/J	.	16f/LL	.	16a-/LL	.	.	.	.	.	.	.	.	.	.	.	.	.
.	.	.	.	16e-/	.	16g/	.	.	.	.	.	.	.	.	.	.	.	.	.
8r	.	8r	.	16a-/	.	16cc/	.	.	.	.	.	.	.	.	.	.	.	.	.
.	.	.	.	16g/JJ	.	16b-/JJ	.	.	.	.	.	.	.	.	.	.	.	.	.
=5	=5	=5	=5	=5	=5	=5	=5	=5	=5	=5	=5	=5	=5	=5	=5	=5	=5	=5	=5
*	*	*	*	*	*	*	*	*	*	*	*	*	*2\right	*	*2\right	*	*2\right	*	*
!	!	!	!	!	!	!LO:TX:t=P:problem=mixed beam	!	!	!	!	!	!	!	!	!	!	!	!	!
8E-\L	.	8e-\L	.	8g/L	.	16e-/LL	.	2ryy	2ryy	2ryy	0r	.	8r	.	8r	.	8r	.	2ryy
.	.	.	.	.	.	16ee-\	.	.	.	.	.	.	.	.	.	.	.	.	.
8G\	.	8B-\	.	8b-/	.	16.ee-T\	.	.	.	.	.	.	8G/L	.	8e-\L	.	8b-\L	.	.
.	.	.	.	.	.	64dd\LL	.	.	.	.	.	.	.	.	.	.	.	.	.
.	.	.	.	.	.	64ee-\JJJJ	.	.	.	.	.	.	.	.	.	.	.	.	.
8F\	.	8B-\	.	8a-/	.	16ff\LL	.	.	.	.	.	.	8B-/	.	8f\	.	8b-\	.	.
.	.	.	.	.	.	16b-\	.	.	.	.	.	.	.	.	.	.	.	.	.
8E-\J	.	8B-\J	.	8g/J	.	16gg\	.	.	.	.	.	.	8e-/J	.	8g\J	.	8b-\J	.	.
.	.	.	.	.	.	16b-\JJ	.	.	.	.	.	.	.	.	.	.	.	.	.
=6	=6	=6	=6	=6	=6	=6	=6	=6	=6	=6	=6	=6	=6	=6	=6	=6	=6	=6	=6
4D\	.	4B-/	.	4f/	.	(16bb-\LL	.	2ryy	2ryy	2ryy	.	.	4B-/	.	4f\	.	4b-\	.	2ryy
.	.	.	.	.	.	16aa-\)	.	.	.	.	.	.	.	.	.	.	.	.	.
.	.	.	.	.	.	16ff\	.	.	.	.	.	.	.	.	.	.	.	.	.
.	.	.	.	.	.	16ff\JJ	.	.	.	.	.	.	.	.	.	.	.	.	.
8r	.	8r	.	8r	.	(16ee-\LL	.	.	.	.	.	.	8r	.	8r	.	8r	.	.
.	.	.	.	.	.	16dd\)	.	.	.	.	.	.	.	.	.	.	.	.	.
8BB-/	.	8B-/	.	8f/	.	(16cc\	.	.	.	.	.	.	8B-/	.	8f\	.	8b-\	.	.
.	.	.	.	.	.	16b-\JJ)	.	.	.	.	.	.	.	.	.	.	.	.	.
=7	=7	=7	=7	=7	=7	=7	=7	=7	=7	=7	=7	=7	=7	=7	=7	=7	=7	=7	=7
*	*	*tremolo	*	*	*	*	*	*	*	*	*	*	*	*	*	*	*tremolo	*	*
!	!	!	!	!	!	!LO:TX:t=P:problem=mixed beam	!	!	!	!	!	!	!LO:TX:t=P:problem=mixed beam	!	!	!	!	!	!
8E-\L	.	8B-\L	.	8g/L	.	16e-/LL	.	2ryy	2ryy	2ryy	.	.	8e-\L	.	8g\L	.	8b-'\L	.	2ryy
.	.	.	.	.	.	16ee-\	.	.	.	.	.	.	.	.	.	.	.	.	.
8G\	.	8B-\	.	8b-/	.	16.ee-T\	.	.	.	.	.	.	8G/	.	8e-\	.	8b-'\	.	.
.	.	.	.	.	.	64dd\LL	.	.	.	.	.	.	.	.	.	.	.	.	.
.	.	.	.	.	.	64ee-\JJJJ	.	.	.	.	.	.	.	.	.	.	.	.	.
8F\	.	8B-\	.	8a-/	.	16ff\LL	.	.	.	.	.	.	8B-/	.	8f\	.	8b-'\	.	.
.	.	.	.	.	.	16b-\	.	.	.	.	.	.	.	.	.	.	.	.	.
8E-\J	.	8B-\J	.	8g/J	.	16gg\	.	.	.	.	.	.	8e-\J	.	8g\J	.	8b-'\J	.	.
.	.	.	.	.	.	16b-\JJ	.	.	.	.	.	.	.	.	.	.	.	.	.
*	*	*Xtremolo	*	*	*	*	*	*	*	*	*	*	*	*	*	*	*Xtremolo	*	*
=8	=8	=8	=8	=8	=8	=8	=8	=8	=8	=8	=8	=8	=8	=8	=8	=8	=8	=8	=8
4D\	.	4B-\	.	4f/	.	16bb-\LL	.	2ryy	2ryy	2ryy	.	.	4B-/	.	4f\	.	4b-\	.	2ryy
.	.	.	.	.	.	16aa-\	.	.	.	.	.	.	.	.	.	.	.	.	.
.	.	.	.	.	.	16ff\	.	.	.	.	.	.	.	.	.	.	.	.	.
.	.	.	.	.	.	16dd\JJ	.	.	.	.	.	.	.	.	.	.	.	.	.
8r	.	8r	.	8r	.	16b-/LL	.	.	.	.	.	.	8r	.	8r	.	8r	.	.
.	.	.	.	.	.	16a-/	.	.	.	.	.	.	.	.	.	.	.	.	.
8D\	.	8B-\	.	8f/	.	16g/	.	.	.	.	.	.	8B-/	.	8f\	.	8b-\	.	.
.	.	.	.	.	.	16a-/JJ	.	.	.	.	.	.	.	.	.	.	.	.	.
=9	=9	=9	=9	=9	=9	=9	=9	=9	=9	=9	=9	=9	=9	=9	=9	=9	=9	=9	=9
!	!	!LO:TX:t=P:problem=mixed beam	!	!	!	!LO:TX:t=P:problem=mixed beam	!	!	!	!	!	!	!	!	!	!	!	!	!
8E-\L	.	8e-\L	.	8e-/L	.	16g/LL	.	2ryy	2ryy	2ryy	0r	.	8e-\	.	8g\	.	8b-\	.	2ryy
.	.	.	.	.	.	16ee-\	.	.	.	.	.	.	.	.	.	.	.	.	.
8G\	.	8G/	.	8e-/	.	16dd\	.	.	.	.	.	.	8r	.	8r	.	4r	.	.
.	.	.	.	.	.	16cc\JJ	.	.	.	.	.	.	.	.	.	.	.	.	.
8A-\	.	8A-/	.	8e-/	.	16bn\LL	.	.	.	.	.	.	4r	.	4r	.	.	.	.
.	.	.	.	.	.	16cc\	.	.	.	.	.	.	.	.	.	.	.	.	.
8A-\J	.	8A-/J	.	8cc/J	.	16aa-\	.	.	.	.	.	.	.	.	.	.	8r	.	.
.	.	.	.	.	.	16ff\JJ	.	.	.	.	.	.	.	.	.	.	.	.	.
=10	=10	=10	=10	=10	=10	=10	=10	=10	=10	=10	=10	=10	=10	=10	=10	=10	=10	=10	=10
!LO:TX:t=P:problem=mixed beam	!	!	!	!	!	!	!	!	!	!	!	!	!	!	!	!	!	!	!
8B-\L	.	8B-\L	.	8g/L	.	8ee-\L	.	2ryy	2ryy	2ryy	.	.	4G/	.	4e-\	.	4ee-\	.	2ryy
8B-\	.	8e-\	.	8g/	.	32ee-\LL	.	.	.	.	.	.	.	.	.	.	.	.	.
.	.	.	.	.	.	32ff\	.	.	.	.	.	.	.	.	.	.	.	.	.
.	.	.	.	.	.	32ee-\	.	.	.	.	.	.	.	.	.	.	.	.	.
.	.	.	.	.	.	32ff\JJJ	.	.	.	.	.	.	.	.	.	.	.	.	.
8BB-/	.	8d\	.	8a-/	.	4ffT\	.	.	.	.	.	.	4B-/	.	4f\	.	4dd\	.	.
8BB-/J	.	8d\J	.	8a-/J	.	.	.	.	.	.	.	.	.	.	.	.	.	.	.
=11	=11	=11	=11	=11	=11	=11	=11	=11	=11	=11	=11	=11	=11	=11	=11	=11	=11	=11	=11
!	!	!LO:TX:t=P:problem=mixed beam	!	!	!	!LO:TX:t=P:problem=mixed beam	!	!	!	!	!	!	!	!	!	!	!	!	!
8E-\L	.	8e-\L	.	8g/L	.	16ee-\LL	.	2ryy	2ryy	2ryy	.	.	8G/	.	8e-\	.	8ee-\	.	2ryy
.	.	.	.	.	.	16e-/	.	.	.	.	.	.	.	.	.	.	.	.	.
8G\	.	8G/	.	8e-/	.	16ee-\	.	.	.	.	.	.	8r	.	8r	.	8r	.	.
.	.	.	.	.	.	16ee-\JJ	.	.	.	.	.	.	.	.	.	.	.	.	.
8A-\	.	8A-/	.	8e-/	.	16dd\LL	.	.	.	.	.	.	4r	.	4r	.	4r	.	.
.	.	.	.	.	.	16cc\	.	.	.	.	.	.	.	.	.	.	.	.	.
8A-\J	.	8A-/J	.	8e-/J	.	16b-\	.	.	.	.	.	.	.	.	.	.	.	.	.
.	.	.	.	.	.	16a-\JJ	.	.	.	.	.	.	.	.	.	.	.	.	.
=12	=12	=12	=12	=12	=12	=12	=12	=12	=12	=12	=12	=12	=12	=12	=12	=12	=12	=12	=12
*	*	*	*	*	*	*Xtuplet	*	*	*	*	*	*	*	*	*	*	*	*	*
!LO:TX:t=P:problem=mixed beam	!	!	!	!	!	!LO:TX:t=P:problem=mixed beam	!	!	!	!	!	!	!LO:SIC:v:s=4ee\	!	!	!	!	!	!
8B-\L	.	8B-\L	.	8g/L	.	24g/LL	.	2ryy	2ryy	2ryy	.	.	4A-/	.	4e-\	.	4ee-\	.	2ryy
.	.	.	.	.	.	24ee-\	.	.	.	.	.	.	.	.	.	.	.	.	.
.	.	.	.	.	.	24gg\JJ	.	.	.	.	.	.	.	.	.	.	.	.	.
8B-\	.	8e-\	.	8g/	.	24bb-\LL	.	.	.	.	.	.	.	.	.	.	.	.	.
.	.	.	.	.	.	24gg\	.	.	.	.	.	.	.	.	.	.	.	.	.
.	.	.	.	.	.	24ee-\JJ	.	.	.	.	.	.	.	.	.	.	.	.	.
8BB-/	.	8d\	.	8a-/	.	4ffT\	.	.	.	.	.	.	4B-/	.	4f\	.	4dd\	.	.
8BB-/J	.	8d\J	.	8a-/J	.	.	.	.	.	.	.	.	.	.	.	.	.	.	.
=13	=13	=13	=13	=13	=13	=13	=13	=13	=13	=13	=13	=13	=13	=13	=13	=13	=13	=13	=13
!	!LO:DY:a	!	!LO:DY:a	!	!LO:DY:a	!LO:TX:t=P:problem=mixed beam	!	!	!	!	!	!	!LO:TX:t=P:problem=mixed beam	!	!	!	!	!	!
8E-\	p	8e-\	p	8g/L	p	8ee-\L	p	2ryy	2ryy	2ryy	1r	.	8G/L	.	8e-\L	.	8ee-\L	.	2ryy
8r	.	8r	.	16e-/L	.	16g/L	.	.	.	.	.	.	16e-/L	.	16g\L	.	16ee-\L	.	.
.	.	.	.	16f/JJ	.	16a-/JJ	.	.	.	.	.	.	16f/JJ	.	16a-\JJ	.	16ff\JJ	.	.
4r	.	8E-/	.	8e-/L	.	8g/L	.	.	.	.	.	.	8e-\L	.	8g\L	.	8ee-\L	.	.
.	.	8r	.	8f/J	.	8a-/J	.	.	.	.	.	.	8f\J	.	8a-\J	.	8ff\J	.	.
=14	=14	=14	=14	=14	=14	=14	=14	=14	=14	=14	=14	=14	=14	=14	=14	=14	=14	=14	=14
8E-\	.	8E-/	.	8.g/L	.	8.b-/L	.	2ryy	2ryy	2ryy	.	.	8.g\L	.	8.b-\L	.	8.gg\L	.	2ryy
8r	.	8r	.	.	.	.	.	.	.	.	.	.	.	.	.	.	.	.	.
.	.	.	.	16e-/Jk	.	16g/Jk	.	.	.	.	.	.	16e-\Jk	.	16g\Jk	.	16ee-\Jk	.	.
8BB-/	.	8B-/	.	16g/LL	.	16b-/LL	.	.	.	.	.	.	16g\LL	.	16b-\LL	.	16gg\LL	.	.
.	.	.	.	16f/	.	16a-/	.	.	.	.	.	.	16f\	.	16a-\	.	16ff\	.	.
8r	.	8r	.	16e-/	.	16g/	.	.	.	.	.	.	16e-\	.	16g\	.	16ee-\	.	.
!	!	!	!	!	!	!	!	!	!	!	!	!	!LO:SIC:v:s=16B-\	!	!	!	!	!	!
.	.	.	.	16B-/JJ	.	16f/JJ	.	.	.	.	.	.	16c\JJ	.	16f\JJ	.	16dd\JJ	.	.
=15	=15	=15	=15	=15	=15	=15	=15	=15	=15	=15	=15	=15	=15	=15	=15	=15	=15	=15	=15
!	!	!LO:TX:t=P:problem=mixed beam	!	!	!	!	!	!	!	!	!	!	!	!	!	!	!	!	!
8E-\	.	8e-\L	.	8G/L	.	8e-/L	.	2ryy	2ryy	2ryy	2r	.	8G/L	.	8e-\L	.	8ee-\L	.	2ryy
8r	.	8E-/	.	8B-/	.	8g/	.	.	.	.	.	.	8B-/	.	8g\	.	8b-\J	.	.
!	!	!	!	!	!	!	!	!	!	!	!	!	!	!	!	!LO:DY:a	!	!	!
4r	.	8E-/J	.	8G/J	.	8e-/J	.	.	.	.	.	.	8G/J	.	8e-\J	f	8g/	.	.
!	!	!	!	!	!	!	!	!	!	!	!	!	!LO:TX:t=P:problem=podwójna fermata na podwójnej kresce taktowej	!	!LO:TX:t=P:problem=podwójna kreska taktowa	!	!LO:TX:t=P:problem=podwójna fermata na podwójnej kresce taktowej	!	!
.	.	8r	.	8r	.	8r	.	.	.	.	.	.	8r	.	8r	.	8r	.	.
=16	=16	=16	=16	=16	=16	=16	=16	=16	=16	=16	=16	=16	=16	=16	=16	=16	=16	=16	=16
*	*	*	*	*	*	*	*	*	*	*	*2\right	*	*	*	*	*	*	*	*
*tremolo	*	*	*	*	*	*	*	*	*	*	*	*	*	*	*	*	*	*	*
!	!	!	!	!	!	!	!	!	!	!	!	!	!	!	!LO:TX:b:t=pau&colon;	!	!	!	!
!	!LO:DY:a	!	!LO:DY:a	!	!	!	!LO:DY:a	!	!	!	!LO:TX:a:Bi:t=Solo	!	!	!	!LO:TX:a:t=16	!	!LO:TX:a:t=16.	!	!
8E-\L	p	16E-/LL	p	16g/LL	p	4.b-\	p	2ryy	2ryy	2ryy	4.b-\	Be-	0r	.	0r	.	0r	.	2ryy
.	.	16G/	.	16e-/	.	.	.	.	.	.	.	.	.	.	.	.	.	.	.
8E-\	.	16E-/	.	16g/	.	.	.	.	.	.	.	.	.	.	.	.	.	.	.
.	.	16G/JJ	.	16e-/JJ	.	.	.	.	.	.	.	.	.	.	.	.	.	.	.
8E-\	.	16E-/LL	.	16g/LL	.	.	.	.	.	.	.	.	.	.	.	.	.	.	.
.	.	16G/JJ	.	16e-/	.	.	.	.	.	.	.	.	.	.	.	.	.	.	.
8E-\J	.	8e-\	.	16g/	.	16ee-\LL	.	.	.	.	16ee-\LL	-ne-	.	.	.	.	.	.	.
.	.	.	.	16a-/JJ	.	16cc\JJ	.	.	.	.	16cc\JJ	.	.	.	.	.	.	.	.
*Xtremolo	*	*	*	*	*	*	*	*	*	*	*	*	*	*	*	*	*	*	*
=17	=17	=17	=17	=17	=17	=17	=17	=17	=17	=17	=17	=17	=17	=17	=17	=17	=17	=17	=17
8E-\L	.	8e-\L	.	8.g/L	.	8.b-/L	.	2ryy	2ryy	2ryy	8.b-\L	-di-	.	.	.	.	.	.	2ryy
8BB-\	.	8B-\	.	.	.	.	.	.	.	.	.	.	.	.	.	.	.	.	.
.	.	.	.	16f/K	.	16a-/K	.	.	.	.	16a-\Jk	.	.	.	.	.	.	.	.
8E-\J	.	8e-\J	.	8e-/	.	8g/	.	.	.	.	8g\	-ctus	.	.	.	.	.	.	.
8r	.	8r	.	8g/J	.	8b-/J	.	.	.	.	8b-\	qvi	.	.	.	.	.	.	.
=18	=18	=18	=18	=18	=18	=18	=18	=18	=18	=18	=18	=18	=18	=18	=18	=18	=18	=18	=18
!LO:TX:t=P:problem=mixed beam	!	!	!	!	!	!	!	!	!	!	!	!	!	!	!	!	!	!	!
8E-\L	.	8e-\L	.	16g/LL	.	16b-/LL	.	2ryy	2ryy	2ryy	16b-\LL	ve-	.	.	.	.	.	.	2ryy
.	.	.	.	16e-/	.	16g/	.	.	.	.	16g\	.	.	.	.	.	.	.	.
8A-\	.	8A-\	.	16a-/	.	16cc/	.	.	.	.	16cc\	.	.	.	.	.	.	.	.
.	.	.	.	16f/JJ	.	16a-/JJ	.	.	.	.	16a-\JJ	.	.	.	.	.	.	.	.
8B-\	.	8B-\	.	8e-/L	.	16g/LL	.	.	.	.	16g/LL	.	.	.	.	.	.	.	.
.	.	.	.	.	.	16e-/	.	.	.	.	16e-/	.	.	.	.	.	.	.	.
8BB-/J	.	8B-\J	.	8d/J	.	16a-/	.	.	.	.	16a-/	.	.	.	.	.	.	.	.
.	.	.	.	.	.	16f/JJ	.	.	.	.	16f/JJ	.	.	.	.	.	.	.	.
=19	=19	=19	=19	=19	=19	=19	=19	=19	=19	=19	=19	=19	=19	=19	=19	=19	=19	=19	=19
!	!	!LO:TX:t=P:problem=mixed beam	!	!	!	!	!	!	!	!	!	!	!	!	!	!	!	!	!
8E-\	.	8e-\L	.	4e-/	.	16e-/LL	.	2ryy	2ryy	2ryy	8e-/	-nit	.	.	.	.	.	.	2ryy
.	.	.	.	.	.	16g/	.	.	.	.	.	.	.	.	.	.	.	.	.
8r	.	8r	.	.	.	16b-/	.	.	.	.	8r	.	.	.	.	.	.	.	.
.	.	.	.	.	.	16ee-/JJ	.	.	.	.	.	.	.	.	.	.	.	.	.
8r	.	8E-/J	.	8r	.	16gg\LL	.	.	.	.	16gg\LL	in	.	.	.	.	.	.	.
.	.	.	.	.	.	16ee-\	.	.	.	.	16ee-\	.	.	.	.	.	.	.	.
8E-\	.	8r	.	8g/	.	16bb-\	.	.	.	.	16bb-\	.	.	.	.	.	.	.	.
.	.	.	.	.	.	16gg\JJ	.	.	.	.	16gg\JJ	.	.	.	.	.	.	.	.
=20	=20	=20	=20	=20	=20	=20	=20	=20	=20	=20	=20	=20	=20	=20	=20	=20	=20	=20	=20
*	*	*tremolo	*	*	*	*	*	*	*	*	*	*	*	*	*	*	*	*	*
!LO:TX:t=P:problem=mixed beam	!	!	!	!	!	!	!	!	!	!	!	!	!	!	!	!	!	!	!
8B-\L	.	8B-/L	.	8d/L	.	(16ff\LL	.	2ryy	2ryy	2ryy	16ff\LL	no-	0r	.	0r	.	0r	.	2ryy
.	.	.	.	.	.	16dd\)	.	.	.	.	16dd\	.	.	.	.	.	.	.	.
8BB-/	.	8B-/	.	8d/	.	(16cc\	.	.	.	.	16cc\	.	.	.	.	.	.	.	.
.	.	.	.	.	.	16b-\JJ)	.	.	.	.	16b-\JJ	.	.	.	.	.	.	.	.
8D/	.	8B-/	.	8f/	.	(16an/LL	.	.	.	.	16an\LL	.	.	.	.	.	.	.	.
.	.	.	.	.	.	16b-/)	.	.	.	.	16b-\JJ	.	.	.	.	.	.	.	.
8D/J	.	8B-/J	.	8f/J	.	(16f/	.	.	.	.	16f\LL	-mi-	.	.	.	.	.	.	.
.	.	.	.	.	.	16a-X/JJ)	.	.	.	.	16a-X\JJ	.	.	.	.	.	.	.	.
*	*	*Xtremolo	*	*	*	*	*	*	*	*	*	*	*	*	*	*	*	*	*
=21	=21	=21	=21	=21	=21	=21	=21	=21	=21	=21	=21	=21	=21	=21	=21	=21	=21	=21	=21
8E-\	.	8B-/	.	8e-/L	.	16g\LL	.	2ryy	2ryy	2ryy	8g\	-[n]e	.	.	.	.	.	.	2ryy
.	.	.	.	.	.	16b-\	.	.	.	.	.	.	.	.	.	.	.	.	.
8r	.	8r	.	8g/J	.	16ee-\	.	.	.	.	8r	.	.	.	.	.	.	.	.
.	.	.	.	.	.	16gg\JJ	.	.	.	.	.	.	.	.	.	.	.	.	.
8r	.	8e-\	.	16r	.	16bb-\LL	.	.	.	.	8r	.	.	.	.	.	.	.	.
.	.	.	.	16b-/LL	.	16gg\	.	.	.	.	.	.	.	.	.	.	.	.	.
8E-\	.	8r	.	16a-/	.	16ff\	.	.	.	.	[8ee-\	Do-	.	.	.	.	.	.	.
.	.	.	.	16g/JJ	.	16ee-\JJ	.	.	.	.	.	.	.	.	.	.	.	.	.
=22	=22	=22	=22	=22	=22	=22	=22	=22	=22	=22	=22	=22	=22	=22	=22	=22	=22	=22	=22
!LO:TX:t=P:problem=mixed beam	!	!LO:TX:t=P:problem=mixed beam	!	!	!	!	!	!	!	!	!	!	!	!	!	!	!	!	!
8B-\L	.	8b-\L	.	8g/L	.	16ee-\LL	.	2ryy	2ryy	2ryy	16ee-\]	.	.	.	.	.	.	.	2ryy
.	.	.	.	.	.	32dd\L	.	.	.	.	32dd\LLL	-mi-	.	.	.	.	.	.	.
.	.	.	.	.	.	32ee-\JJ	.	.	.	.	32ee-\JJJ	.	.	.	.	.	.	.	.
8BB-/	.	8B-/	.	8f/	.	8dd\J	.	.	.	.	8dd\	-ni	.	.	.	.	.	.	.
8BB-/J	.	8B-/J	.	8f/J	.	8r	.	.	.	.	8r	.	.	.	.	.	.	.	.
!LO:TX:t=P:problem=ozdobna kreska taktowa	!	!	!	!	!	!	!	!	!	!	!	!	!	!	!	!	!	!	!
8r	.	8r	.	8r	.	16ff\LL	.	.	.	.	16ff\LL	qui	.	.	.	.	.	.	.
.	.	.	.	.	.	16dd\JJ	.	.	.	.	16dd\JJ	.	.	.	.	.	.	.	.
=23	=23	=23	=23	=23	=23	=23	=23	=23	=23	=23	=23	=23	=23	=23	=23	=23	=23	=23	=23
*	*	*tremolo	*	*	*	*	*	*	*	*	*	*	*	*	*	*	*	*	*
!LO:TX:t=P:problem=t. 23-38 dopisane na doklejonym fragmencie	!	!	!	!	!	!	!	!	!	!	!	!	!	!	!	!	!	!	!
8D/L	.	8d\L	.	8f/L	.	8.b-/L	.	2ryy	2ryy	2ryy	8.b-\L	ve-	.	.	.	.	.	.	2ryy
8D/	.	8d\	.	8f/	.	.	.	.	.	.	.	.	.	.	.	.	.	.	.
.	.	.	.	.	.	32an/LL	.	.	.	.	32an\LL	.	.	.	.	.	.	.	.
.	.	.	.	.	.	32b-/JJJ	.	.	.	.	32b-\JJJ	.	.	.	.	.	.	.	.
8D/	.	8d\	.	8f/	.	16ee-\LL	.	.	.	.	16ee-\LL	.	.	.	.	.	.	.	.
.	.	.	.	.	.	16dd\	.	.	.	.	16dd\	.	.	.	.	.	.	.	.
8B-\J	.	8d\J	.	8f/J	.	16cc\	.	.	.	.	16cc\	.	.	.	.	.	.	.	.
.	.	.	.	.	.	16b-\JJ	.	.	.	.	16b-\JJ	.	.	.	.	.	.	.	.
=24	=24	=24	=24	=24	=24	=24	=24	=24	=24	=24	=24	=24	=24	=24	=24	=24	=24	=24	=24
*tremolo	*	*	*	*tremolo	*	*	*	*	*	*	*	*	*	*	*	*	*	*	*
8An\L	.	8An/L	.	8f/L	.	(16bn\LL	.	2ryy	2ryy	2ryy	16bn\LL	.	0r	.	0r	.	0r	.	2ryy
.	.	.	.	.	.	16cc\JJ)	.	.	.	.	16cc\JJ	.	.	.	.	.	.	.	.
8An\	.	8An/	.	8f/	.	16r	.	.	.	.	8cc\	-nit	.	.	.	.	.	.	.
.	.	.	.	.	.	16cc|>\LL	.	.	.	.	.	.	.	.	.	.	.	.	.
8An\	.	8An/	.	8f/	.	(16b\	.	.	.	.	8r	.	.	.	.	.	.	.	.
.	.	.	.	.	.	16cc\JJ)	.	.	.	.	.	.	.	.	.	.	.	.	.
8An\J	.	8An/J	.	8f/J	.	16r	.	.	.	.	8cc\	in	.	.	.	.	.	.	.
.	.	.	.	.	.	16cc\	.	.	.	.	.	.	.	.	.	.	.	.	.
=25	=25	=25	=25	=25	=25	=25	=25	=25	=25	=25	=25	=25	=25	=25	=25	=25	=25	=25	=25
8A-\L	.	8A-/L	.	8f/L	.	8.cc\L	.	2ryy	2ryy	2ryy	8.cc\L	no-	.	.	.	.	.	.	2ryy
8A-\	.	8A-/	.	8f/	.	.	.	.	.	.	.	.	.	.	.	.	.	.	.
.	.	.	.	.	.	32bn\LL	.	.	.	.	32bn\LL	.	.	.	.	.	.	.	.
.	.	.	.	.	.	32cc\JJJ	.	.	.	.	32cc\JJJ	.	.	.	.	.	.	.	.
8A-\	.	8A-/	.	8f/	.	(16ff\LL	.	.	.	.	16ff\LL	-mi-	.	.	.	.	.	.	.
.	.	.	.	.	.	16ee-\)	.	.	.	.	16ee-\	.	.	.	.	.	.	.	.
8A-\J	.	8A-/J	.	8f/J	.	(16dd\	.	.	.	.	16dd\	.	.	.	.	.	.	.	.
.	.	.	.	.	.	16cc\JJ)	.	.	.	.	16cc\JJ	.	.	.	.	.	.	.	.
=26	=26	=26	=26	=26	=26	=26	=26	=26	=26	=26	=26	=26	=26	=26	=26	=26	=26	=26	=26
8B-\L	.	8B-/L	.	8f/L	.	(16cc#X\LL	.	2ryy	2ryy	2ryy	16cc#X\LL	-ne	.	.	.	.	.	.	2ryy
.	.	.	.	.	.	16dd\JJ)	.	.	.	.	16dd\JJ	.	.	.	.	.	.	.	.
8B-\	.	8B-/	.	8f/	.	16r	.	.	.	.	8r	.	.	.	.	.	.	.	.
.	.	.	.	.	.	16dd|>\LL	.	.	.	.	.	.	.	.	.	.	.	.	.
8B-\	.	8B-/	.	8f/	.	(16cc#\	.	.	.	.	8r	.	.	.	.	.	.	.	.
.	.	.	.	.	.	16dd\JJ)	.	.	.	.	.	.	.	.	.	.	.	.	.
8B-\J	.	8B-/J	.	8f/J	.	16r	.	.	.	.	8ff\	qui	.	.	.	.	.	.	.
.	.	.	.	.	.	16ff\	.	.	.	.	.	.	.	.	.	.	.	.	.
*Xtremolo	*	*Xtremolo	*	*Xtremolo	*	*	*	*	*	*	*	*	*	*	*	*	*	*	*
=27	=27	=27	=27	=27	=27	=27	=27	=27	=27	=27	=27	=27	=27	=27	=27	=27	=27	=27	=27
4B-\	.	8g\L	.	8b-/L	.	(16ff\LL	.	2ryy	2ryy	2ryy	16ff\LL	ve-	.	.	.	.	.	.	2ryy
.	.	.	.	.	.	16ee-\)	.	.	.	.	16ee-\	.	.	.	.	.	.	.	.
.	.	8f\	.	8b-/	.	(16ee-\	.	.	.	.	16ee-\	.	.	.	.	.	.	.	.
.	.	.	.	.	.	16dd\JJ)	.	.	.	.	16dd\JJ	.	.	.	.	.	.	.	.
8r	.	8e-\	.	8g/	.	16dd\LL	.	.	.	.	16dd\LL	.	.	.	.	.	.	.	.
.	.	.	.	.	.	16cc\	.	.	.	.	16cc\	.	.	.	.	.	.	.	.
8En\	.	8d\J	.	8g/J	.	16cc\	.	.	.	.	16cc\	.	.	.	.	.	.	.	.
.	.	.	.	.	.	16b-\JJ	.	.	.	.	16b-\JJ	.	.	.	.	.	.	.	.
=28	=28	=28	=28	=28	=28	=28	=28	=28	=28	=28	=28	=28	=28	=28	=28	=28	=28	=28	=28
8F\	.	8c\	.	8f/	.	8an/L	.	2ryy	2ryy	2ryy	8an\	-nit	0r	.	0r	.	0r	.	2ryy
8r	.	8r	.	8r	.	(32a/LL	.	.	.	.	32a\LLL	in	.	.	.	.	.	.	.
.	.	.	.	.	.	32b-/	.	.	.	.	32b-\	.	.	.	.	.	.	.	.
.	.	.	.	.	.	32a/	.	.	.	.	32a\	.	.	.	.	.	.	.	.
.	.	.	.	.	.	32b-/JJJ)	.	.	.	.	32b-\JJJ	.	.	.	.	.	.	.	.
8An\	.	8r	.	8r	.	32cc\LLL	.	.	.	.	32cc\LLL	no-	.	.	.	.	.	.	.
.	.	.	.	.	.	32dd\	.	.	.	.	32dd\	.	.	.	.	.	.	.	.
.	.	.	.	.	.	32cc\	.	.	.	.	32cc\	.	.	.	.	.	.	.	.
.	.	.	.	.	.	32dd\JJJ	.	.	.	.	32dd\JJJ	.	.	.	.	.	.	.	.
8r	.	8c\	.	8f/	.	32ff\LLL	.	.	.	.	32ff\LLL	.	.	.	.	.	.	.	.
.	.	.	.	.	.	32ee-\	.	.	.	.	32ee-\	.	.	.	.	.	.	.	.
.	.	.	.	.	.	32dd\	.	.	.	.	32dd\	.	.	.	.	.	.	.	.
.	.	.	.	.	.	32cc\JJJ	.	.	.	.	32cc\JJJ	.	.	.	.	.	.	.	.
=29	=29	=29	=29	=29	=29	=29	=29	=29	=29	=29	=29	=29	=29	=29	=29	=29	=29	=29	=29
8B-\	.	8B-\	.	8f/	.	8dd\L	.	2ryy	2ryy	2ryy	8dd\L	.	.	.	.	.	.	.	2ryy
8r	.	8r	.	8r	.	16b-\L	.	.	.	.	16b-\L	.	.	.	.	.	.	.	.
.	.	.	.	.	.	(32cc\L	.	.	.	.	32cc\L	.	.	.	.	.	.	.	.
.	.	.	.	.	.	32dd\JJJ)	.	.	.	.	32dd\JJJ	.	.	.	.	.	.	.	.
8BB-/	.	8r	.	8r	.	32ee-\LLL	.	.	.	.	32ee-\LLL	.	.	.	.	.	.	.	.
.	.	.	.	.	.	(32ff\	.	.	.	.	32ff\	.	.	.	.	.	.	.	.
.	.	.	.	.	.	32gg\)	.	.	.	.	32gg\	.	.	.	.	.	.	.	.
.	.	.	.	.	.	32aan\	.	.	.	.	32aan\JJJ	.	.	.	.	.	.	.	.
8r	.	8d\	.	8f/	.	32bb-\	.	.	.	.	32bb-\LLL	.	.	.	.	.	.	.	.
.	.	.	.	.	.	(32aa\	.	.	.	.	(32aa\	.	.	.	.	.	.	.	.
.	.	.	.	.	.	32gg\)	.	.	.	.	32gg\)	.	.	.	.	.	.	.	.
.	.	.	.	.	.	32ff\JJJ	.	.	.	.	32ff\JJJ	.	.	.	.	.	.	.	.
=30	=30	=30	=30	=30	=30	=30	=30	=30	=30	=30	=30	=30	=30	=30	=30	=30	=30	=30	=30
8F\L	.	8c\L	.	8an/L	.	8ee-\L	.	2ryy	2ryy	2ryy	8ee-\L	.	.	.	.	.	.	.	2ryy
8F\	.	8c\	.	8a/	.	32cc\LL	.	.	.	.	32cc\LL	.	.	.	.	.	.	.	.
.	.	.	.	.	.	(32dd\	.	.	.	.	32dd\	.	.	.	.	.	.	.	.
.	.	.	.	.	.	32cc\)	.	.	.	.	32cc\	.	.	.	.	.	.	.	.
.	.	.	.	.	.	32b-\JJJ	.	.	.	.	32b-\JJJ	.	.	.	.	.	.	.	.
8F\	.	8An\	.	8f/	.	8an\L	.	.	.	.	8an\L	.	.	.	.	.	.	.	.
8An\J	.	8A\J	.	8f/J	.	32ff\LL	.	.	.	.	32ff\LL	.	.	.	.	.	.	.	.
.	.	.	.	.	.	(32ee-\	.	.	.	.	32ee-\	.	.	.	.	.	.	.	.
.	.	.	.	.	.	32dd\)	.	.	.	.	32dd\	.	.	.	.	.	.	.	.
.	.	.	.	.	.	32cc\JJJ	.	.	.	.	32cc\JJJ	.	.	.	.	.	.	.	.
=31	=31	=31	=31	=31	=31	=31	=31	=31	=31	=31	=31	=31	=31	=31	=31	=31	=31	=31	=31
!LO:TX:t=P:problem=mixed beam	!	!LO:TX:t=P:problem=mixed beam	!	!	!	!	!	!	!	!	!	!	!	!	!	!	!	!	!
8B-\L	.	8B-\L	.	8f/L	.	16dd\LL	.	2ryy	2ryy	2ryy	8dd\	-mi-	.	.	.	.	.	.	2ryy
.	.	.	.	.	.	16ff\JJ	.	.	.	.	.	.	.	.	.	.	.	.	.
.	.	.	.	.	.	8qqff/	.	.	.	.	.	.	.	.	.	.	.	.	.
8E-\	.	8e-\	.	16g/L	.	16ee-\LL	.	.	.	.	16ee-\	.	.	.	.	.	.	.	.
.	.	.	.	32f/L	.	32dd\L	.	.	.	.	16cc\	-ne	.	.	.	.	.	.	.
.	.	.	.	32e-/JJJ	.	32cc\JJJ	.	.	.	.	.	.	.	.	.	.	.	.	.
8F\	.	8f\	.	8d/L	.	8b-/L	.	.	.	.	8b-\	Do-	.	.	.	.	.	.	.
8FF/J	.	8F/J	.	8c/J	.	8an/J	.	.	.	.	8an\	-mi-	.	.	.	.	.	.	.
=32	=32	=32	=32	=32	=32	=32	=32	=32	=32	=32	=32	=32	=32	=32	=32	=32	=32	=32	=32
8BB-/L	.	8B-/	.	16d/LL	.	8b-\	.	2ryy	2ryy	2ryy	8b-\	-ni	8r	.	8r	.	8r	.	2ryy
.	.	.	.	16f/	.	.	.	.	.	.	.	.	.	.	.	.	.	.	.
!	!	!	!	!	!	!	!	!	!	!	!	!	!	!LO:DY:a	!	!	!	!	!
8D/	.	8r	.	16f/	.	8r	.	.	.	.	8r	.	8f\L	p	8f\L	.	8f/L	p	.
.	.	.	.	16f/JJ	.	.	.	.	.	.	.	.	.	.	.	.	.	.	.
*	*	*	*	*tremolo	*	*	*	*	*	*	*	*	*	*	*	*	*	*	*
8F/	.	16r	.	16f/LL	.	16r	.	.	.	.	8r	.	8f\	.	8f\	.	8f/	.	.
.	.	16B-/LL	.	16f/	.	16dd\LL	.	.	.	.	.	.	.	.	.	.	.	.	.
8BB-/J	.	16B-/	.	16f/	.	(16dd\	.	.	.	.	16r	.	8f\J	.	8f\J	.	8f/J	.	.
.	.	16d/JJ	.	16f/JJ	.	16ff\JJ)	.	.	.	.	16ff\	qui	.	.	.	.	.	.	.
=33	=33	=33	=33	=33	=33	=33	=33	=33	=33	=33	=33	=33	=33	=33	=33	=33	=33	=33	=33
8AAn/L	.	8c/L	.	16f/LL	.	16ff\LL	.	2ryy	2ryy	2ryy	16ff\LL	ve-	2f\	.	2f\	.	2f/	.	2ryy
.	.	.	.	16f/	.	16ee-\J	.	.	.	.	16ee-\JJ	.	.	.	.	.	.	.	.
8C/	.	8c/J	.	16f/	.	8cc\J	.	.	.	.	8cc\	-nit	.	.	.	.	.	.	.
.	.	.	.	16f/	.	.	.	.	.	.	.	.	.	.	.	.	.	.	.
8F/	.	8An/L	.	16f/	.	16r	.	.	.	.	8r	.	.	.	.	.	.	.	.
.	.	.	.	16f/	.	16cc\LL	.	.	.	.	.	.	.	.	.	.	.	.	.
8AA/J	.	8c/J	.	16f/	.	(16cc\	.	.	.	.	8ee-\	/ve-	.	.	.	.	.	.	.
.	.	.	.	16f/JJ	.	16ee-\JJ)	.	.	.	.	.	.	.	.	.	.	.	.	.
=34	=34	=34	=34	=34	=34	=34	=34	=34	=34	=34	=34	=34	=34	=34	=34	=34	=34	=34	=34
8BB-/L	.	8B-/L	.	16f/LL	.	(16dd\LL	.	2ryy	2ryy	2ryy	16dd\LL	.	2B-/	.	2f\	.	2f/	.	2ryy
.	.	.	.	16f/	.	16ff\)	.	.	.	.	16ff\JJ	.	.	.	.	.	.	.	.
8D/	.	8d/	.	16f/	.	16b-\	.	.	.	.	8b-\	-nit/	.	.	.	.	.	.	.
.	.	.	.	16f/	.	16b-\JJ	.	.	.	.	.	.	.	.	.	.	.	.	.
8F/	.	8B-/	.	16f/	.	(16b-\LL	.	.	.	.	8r	.	.	.	.	.	.	.	.
.	.	.	.	16f/	.	16dd\)	.	.	.	.	.	.	.	.	.	.	.	.	.
8BB-/J	.	8d/J	.	16f/	.	(16dd\	.	.	.	.	8ff\	in	.	.	.	.	.	.	.
.	.	.	.	16f/JJ	.	16ff\JJ)	.	.	.	.	.	.	.	.	.	.	.	.	.
=35	=35	=35	=35	=35	=35	=35	=35	=35	=35	=35	=35	=35	=35	=35	=35	=35	=35	=35	=35
8AAn/L	.	8c/L	.	16f/LL	.	(16ff\LL	.	2ryy	2ryy	2ryy	16ff\	no-	2f\	.	2f\	.	2f/	.	2ryy
.	.	.	.	16f/	.	16ee-\J)	.	.	.	.	16ee-\	-mi-	.	.	.	.	.	.	.
8C/	.	8c/	.	16f/	.	8cc\J	.	.	.	.	8cc\	-ne	.	.	.	.	.	.	.
.	.	.	.	16f/	.	.	.	.	.	.	.	.	.	.	.	.	.	.	.
8F/	.	8An/	.	16f/	.	16r	.	.	.	.	8r	.	.	.	.	.	.	.	.
.	.	.	.	16f/	.	16cc|>\LL	.	.	.	.	.	.	.	.	.	.	.	.	.
*	*	*	*	*	*	*	*	*	*	*	*	*ij	*	*	*	*	*	*	*
8AA/J	.	8c/J	.	16f/	.	(16cc\	.	.	.	.	8ee-\	in	.	.	.	.	.	.	.
.	.	.	.	16f/JJ	.	16ee-\JJ)	.	.	.	.	.	.	.	.	.	.	.	.	.
=36	=36	=36	=36	=36	=36	=36	=36	=36	=36	=36	=36	=36	=36	=36	=36	=36	=36	=36	=36
8BB-/L	.	8B-\L	.	8f/L	.	(16dd\LL	.	2ryy	2ryy	2ryy	16dd\LL	no-	8B-/	.	8f\	.	8f/	.	2ryy
.	.	.	.	.	.	16ff\)	.	.	.	.	16ff\JJ	-mi-	.	.	.	.	.	.	.
8D/	.	8d\J	.	8f/	.	16b-\	.	.	.	.	16b-\	-ne	8r	.	8r	.	8r	.	.
*	*	*	*	*	*	*	*	*	*	*	*	*ij	*	*	*	*	*	*	*
*	*	*	*	*	*	*	*	*	*	*	*	*Xij	*	*	*	*	*	*	*
.	.	.	.	.	.	16b-\JJ	.	.	.	.	16b-\	in	.	.	.	.	.	.	.
!	!	!	!	!	!	!	!	!	!	!	!	!	!	!	!LO:TX:t=P:problem=wykreślony dźwięk	!	!	!	!
8D/	.	8B-\L	.	8f/	.	(16b-/LL	.	.	.	.	16b-\LL	no-	4r	.	8r	.	4r	.	.
.	.	.	.	.	.	16a-X/)	.	.	.	.	16a-X\JJ	.	.	.	.	.	.	.	.
8D/J	.	8B-\J	.	8f/J	.	16a-|>/	.	.	.	.	16a-\	-mi-	.	.	8r	.	.	.	.
.	.	.	.	.	.	16a-|>/JJ	.	.	.	.	16a-\	-ne	.	.	.	.	.	.	.
*	*	*	*	*	*	*	*	*	*	*	*	*Xij	*	*	*	*	*	*	*
=37	=37	=37	=37	=37	=37	=37	=37	=37	=37	=37	=37	=37	=37	=37	=37	=37	=37	=37	=37
*tremolo	*	*	*	*	*	*	*	*	*	*	*	*	*	*	*	*	*	*	*
!	!	!LO:TX:t=P:problem=mixed beam	!	!	!	!	!	!	!	!	!	!	!	!	!	!	!LO:TX:a:t=2.	!	!
8E-\L	.	8B-/L	.	8g/L	.	16g\LL	.	2ryy	2ryy	2ryy	16g\LL	Do-	1r	.	1r	.	1r	.	2ryy
.	.	.	.	.	.	16bn\	.	.	.	.	16bn\	.	.	.	.	.	.	.	.
8E-\	.	8G/	.	8g/	.	16cc\	.	.	.	.	16cc\	.	.	.	.	.	.	.	.
.	.	.	.	.	.	16ee-\JJ	.	.	.	.	16ee-\JJ	.	.	.	.	.	.	.	.
8E-\	.	8e-\	.	8g/	.	16gg\LL	.	.	.	.	16gg\LL	.	.	.	.	.	.	.	.
.	.	.	.	.	.	16ee-\	.	.	.	.	16ee-\	.	.	.	.	.	.	.	.
8E-\J	.	8g\J	.	8g/J	.	16dd\	.	.	.	.	16dd\	.	.	.	.	.	.	.	.
.	.	.	.	.	.	16cc\JJ	.	.	.	.	16cc\JJ	.	.	.	.	.	.	.	.
=38	=38	=38	=38	=38	=38	=38	=38	=38	=38	=38	=38	=38	=38	=38	=38	=38	=38	=38	=38
*	*	*tremolo	*	*	*	*tremolo	*	*	*	*	*	*	*	*	*	*	*	*	*
8F\L	.	16f\LL	.	16d/LL	.	16b-X\LL	.	2ryy	2ryy	2ryy	4b-X\	.	.	.	.	.	.	.	2ryy
.	.	16f\	.	16d/	.	16b-X\	.	.	.	.	.	.	.	.	.	.	.	.	.
8F\	.	16f\	.	16d/	.	16b-X\	.	.	.	.	.	.	.	.	.	.	.	.	.
.	.	16f\JJ	.	16d/JJ	.	16b-X\JJ	.	.	.	.	.	.	.	.	.	.	.	.	.
!	!	!	!	!	!	!	!	!	!	!	!LO:TX:a:B:t=t	!	!	!	!	!	!	!	!
8F\	.	16An/LL	.	16e-/LL	.	16cc\LL	.	.	.	.	8.cc\	.	.	.	.	.	.	.	.
.	.	16A/	.	16e-/	.	16cc\	.	.	.	.	.	.	.	.	.	.	.	.	.
8F\J	.	16A/	.	16e-/	.	16cc\	.	.	.	.	.	.	.	.	.	.	.	.	.
.	.	16A/JJ	.	16e-/JJ	.	16cc\JJ	.	.	.	.	16cc\	-mi-	.	.	.	.	.	.	.
*	*	*Xtremolo	*	*Xtremolo	*	*Xtremolo	*	*	*	*	*	*	*	*	*	*	*	*	*
=39	=39	=39	=39	=39	=39	=39	=39	=39	=39	=39	=39	=39	=39	=39	=39	=39	=39	=39	=39
!	!	!	!	!	!LO:DY:a	!	!	!	!	!	!	!	!	!	!	!	!	!	!
8B-\L	f	8B-\L	.	16d/LL	f	4b-\	.	2ryy	2ryy	2ryy	8b-\	-ni	8r	.	8r	.	8r	.	2ryy
.	.	.	.	16f/	.	.	.	.	.	.	.	.	.	.	.	.	.	.	.
!	!	!	!	!	!	!	!	!	!	!	!	!	!	!LO:DY:a	!	!LO:DY:a	!	!	!
8B-\	.	8r	.	16f/	.	.	.	.	.	.	8r	.	8f\L	f	8f\L	f	8f/L	f	.
.	.	.	.	16f/JJ	.	.	.	.	.	.	.	.	.	.	.	.	.	.	.
*	*	*	*	*tremolo	*	*	*	*	*	*	*	*	*	*	*	*	*	*	*
8B-\	.	8r	.	16f/LL	.	16r	.	.	.	.	4r	.	8f\	.	8f\	.	8f/	.	.
.	.	.	.	16f/	.	16ff|>\LL	f	.	.	.	.	.	.	.	.	.	.	.	.
8B-\J	.	8d\J	.	16f/	.	(16gg\	.	.	.	.	.	.	8f\J	.	8f\J	.	8f/J	.	.
.	.	.	.	16f/JJ	.	16dd\JJ)	.	.	.	.	.	.	.	.	.	.	.	.	.
*Xtremolo	*	*	*	*	*	*	*	*	*	*	*	*	*	*	*	*	*	*	*
=40	=40	=40	=40	=40	=40	=40	=40	=40	=40	=40	=40	=40	=40	=40	=40	=40	=40	=40	=40
.	.	.	.	.	.	8qqff/	.	.	.	.	.	.	.	.	.	.	.	.	.
8F\L	.	8c\L	.	16f/LL	.	16ee-\LL	.	2ryy	2ryy	2ryy	0r	.	2f\	.	2f\	.	2cc\	.	2ryy
.	.	.	.	16f/	.	32dd\L	.	.	.	.	.	.	.	.	.	.	.	.	.
.	.	.	.	.	.	32cc\J	.	.	.	.	.	.	.	.	.	.	.	.	.
8An\	.	8c\	.	16f/	.	16cc\	.	.	.	.	.	.	.	.	.	.	.	.	.
.	.	.	.	16f/	.	16cc\JJ	.	.	.	.	.	.	.	.	.	.	.	.	.
8c\	.	8An\	.	16f/	.	(16cc\LL	.	.	.	.	.	.	.	.	.	.	.	.	.
.	.	.	.	16f/	.	16dd\)	.	.	.	.	.	.	.	.	.	.	.	.	.
8A\J	.	8c\J	.	16f/	.	(16dd\	.	.	.	.	.	.	.	.	.	.	.	.	.
.	.	.	.	16f/JJ	.	16ee-\JJ)	.	.	.	.	.	.	.	.	.	.	.	.	.
=41	=41	=41	=41	=41	=41	=41	=41	=41	=41	=41	=41	=41	=41	=41	=41	=41	=41	=41	=41
8F\L	.	8B-\L	.	16f/LL	.	(16dd\LL	.	2ryy	2ryy	2ryy	.	.	2B-/	.	2f\	.	2b-\	.	2ryy
.	.	.	.	16f/	.	16ff\)	.	.	.	.	.	.	.	.	.	.	.	.	.
8B-\	.	8d\	.	16f/	.	16b-\	.	.	.	.	.	.	.	.	.	.	.	.	.
.	.	.	.	16f/	.	16b-\JJ	.	.	.	.	.	.	.	.	.	.	.	.	.
8d\	.	8B-\	.	16f/	.	16b-\LL	.	.	.	.	.	.	.	.	.	.	.	.	.
.	.	.	.	16f/	.	16ff\	.	.	.	.	.	.	.	.	.	.	.	.	.
8B-\J	.	8d\J	.	16f/	.	16gg\	.	.	.	.	.	.	.	.	.	.	.	.	.
.	.	.	.	16f/JJ	.	16dd\JJ	.	.	.	.	.	.	.	.	.	.	.	.	.
=42	=42	=42	=42	=42	=42	=42	=42	=42	=42	=42	=42	=42	=42	=42	=42	=42	=42	=42	=42
.	.	.	.	.	.	8qqff/	.	.	.	.	.	.	.	.	.	.	.	.	.
8F\L	.	8An\L	.	16f/LL	.	16ee-\LL	.	2ryy	2ryy	2ryy	.	.	2f\	.	2f\	.	2cc\	.	2ryy
.	.	.	.	16f/	.	32dd\L	.	.	.	.	.	.	.	.	.	.	.	.	.
.	.	.	.	.	.	32cc\J	.	.	.	.	.	.	.	.	.	.	.	.	.
8An\	.	8c\	.	16f/	.	16cc\	.	.	.	.	.	.	.	.	.	.	.	.	.
.	.	.	.	16f/	.	16cc\JJ	.	.	.	.	.	.	.	.	.	.	.	.	.
8c\	.	8A\	.	16f/	.	(16cc\LL	.	.	.	.	.	.	.	.	.	.	.	.	.
.	.	.	.	16f/	.	16dd\)	.	.	.	.	.	.	.	.	.	.	.	.	.
8A\J	.	8c\J	.	16f/	.	(16dd\	.	.	.	.	.	.	.	.	.	.	.	.	.
.	.	.	.	16f/JJ	.	16ee-\JJ)	.	.	.	.	.	.	.	.	.	.	.	.	.
*	*	*	*	*Xtremolo	*	*	*	*	*	*	*	*	*	*	*	*	*	*	*
=43	=43	=43	=43	=43	=43	=43	=43	=43	=43	=43	=43	=43	=43	=43	=43	=43	=43	=43	=43
8B-\L	.	8B-\L	.	8f/L	.	16dd\LL	.	2ryy	2ryy	2ryy	.	.	8B-/	.	8f\	.	8b-\	.	2ryy
.	.	.	.	.	.	16bb-\	.	.	.	.	.	.	.	.	.	.	.	.	.
8D\	.	8d\	.	8b-/	.	16aa-\	.	.	.	.	.	.	8r	.	8r	.	8r	.	.
.	.	.	.	.	.	16gg\JJ	.	.	.	.	.	.	.	.	.	.	.	.	.
8E-\	.	8e-\	.	8b-/	.	16ff#X\LL	.	.	.	.	.	.	8e-\	.	8g\	.	4r	.	.
.	.	.	.	.	.	16gg\	.	.	.	.	.	.	.	.	.	.	.	.	.
.	.	.	.	.	.	8qqffn/	.	.	.	.	.	.	.	.	.	.	.	.	.
8E-\J	.	8e-\J	.	8b-/J	.	16ee-\	.	.	.	.	.	.	8r	.	8r	.	.	.	.
.	.	.	.	.	.	8qqdd/	.	.	.	.	.	.	.	.	.	.	.	.	.
.	.	.	.	.	.	16cc\JJ	.	.	.	.	.	.	.	.	.	.	.	.	.
=44	=44	=44	=44	=44	=44	=44	=44	=44	=44	=44	=44	=44	=44	=44	=44	=44	=44	=44	=44
*tremolo	*	*tremolo	*	*tremolo	*	*	*	*	*	*	*	*	*	*	*	*	*	*	*
8F\L	.	16f\LL	.	16d/LL	.	8b-\L	.	2ryy	2ryy	2ryy	1r	.	2f\	.	2f\	.	4dd\	.	2ryy
.	.	16f\	.	16d/	.	.	.	.	.	.	.	.	.	.	.	.	.	.	.
8F\	.	16f\	.	16d/	.	(32b-\LL	.	.	.	.	.	.	.	.	.	.	.	.	.
.	.	.	.	.	.	32cc\	.	.	.	.	.	.	.	.	.	.	.	.	.
.	.	16f\JJ	.	16d/JJ	.	32b-\	.	.	.	.	.	.	.	.	.	.	.	.	.
.	.	.	.	.	.	32cc\JJJ)	.	.	.	.	.	.	.	.	.	.	.	.	.
!	!	!LO:SIC:v:s=16An/LL	!	!	!	!	!	!	!	!	!	!	!	!	!	!	!	!	!
8F\	.	16A-/LL	.	16e-/LL	.	4ccT\	.	.	.	.	.	.	.	.	.	.	4cc\	.	.
!	!	!LO:SIC:v:s=16An/	!	!	!	!	!	!	!	!	!	!	!	!	!	!	!	!	!
.	.	16A-/	.	16e-/	.	.	.	.	.	.	.	.	.	.	.	.	.	.	.
!	!	!LO:SIC:v:s=16An/	!	!	!	!	!	!	!	!	!	!	!	!	!	!	!	!	!
8F\J	.	16A-/	.	16e-/	.	.	.	.	.	.	.	.	.	.	.	.	.	.	.
!	!	!LO:SIC:v:s=16An/JJ	!	!	!	!	!	!	!	!	!	!	!	!	!	!	!	!	!
.	.	16A-/JJ	.	16e-/JJ	.	.	.	.	.	.	.	.	.	.	.	.	.	.	.
*Xtremolo	*	*Xtremolo	*	*Xtremolo	*	*	*	*	*	*	*	*	*	*	*	*	*	*	*
=45	=45	=45	=45	=45	=45	=45	=45	=45	=45	=45	=45	=45	=45	=45	=45	=45	=45	=45	=45
!	!	!	!LO:DY:a	!	!LO:DY:a	!	!LO:DY:a	!	!	!	!	!	!	!	!	!	!	!	!
8BB-/	.	8B-/L	p	16d/LL	p	16b-\LL	p	2ryy	2ryy	2ryy	.	.	8B-/	.	8f\	.	8dd\	.	2ryy
.	.	.	.	16d/	.	16b-\	.	.	.	.	.	.	.	.	.	.	.	.	.
8r	.	8r	.	(16g/	.	(16ee-\	.	.	.	.	.	.	8r	.	8r	.	8r	.	.
.	.	.	.	16e-/JJ)	.	16cc\JJ)	.	.	.	.	.	.	.	.	.	.	.	.	.
8BB-/	.	8B-/J	.	16d/LL	.	16b-\LL	.	.	.	.	.	.	4r	.	4r	.	4r	.	.
.	.	.	.	16d/	.	16b-\	.	.	.	.	.	.	.	.	.	.	.	.	.
8r	.	8r	.	(16g/	.	(16ee-\	.	.	.	.	.	.	.	.	.	.	.	.	.
.	.	.	.	16e-/JJ)	.	16cc\JJ)	.	.	.	.	.	.	.	.	.	.	.	.	.
=46	=46	=46	=46	=46	=46	=46	=46	=46	=46	=46	=46	=46	=46	=46	=46	=46	=46	=46	=46
!LO:TX:t=P:problem=mixed beam	!	!LO:TX:t=P:problem=t. 46 dopisany na dolnym marginesie	!	!	!	!	!	!	!	!	!	!	!	!LO:DY:a	!	!LO:DY:a	!	!	!
8F\L	.	8B-/L	.	(4e-/	.	(4cc\	.	2ryy	2ryy	2ryy	2r	.	4f\	p	4f\	p	(4cc\	.	2ryy
8FF/	.	8B-/	.	.	.	.	.	.	.	.	.	.	.	.	.	.	.	.	.
8BB-/J	.	8B-/J	.	8d/)	.	8b-\)	.	.	.	.	.	.	8B-/	.	8f\	.	8b-\)	.	.
8r	.	8r	.	8r	.	8r	.	.	.	.	.	.	8r	.	8r	.	8r	.	.
=47	=47	=47	=47	=47	=47	=47	=47	=47	=47	=47	=47	=47	=47	=47	=47	=47	=47	=47	=47
*tremolo	*	*	*	*	*	*	*	*	*	*	*	*	*	*	*	*	*	*	*
!	!	!	!	!	!	!	!	!	!	!	!	!	!	!	!LO:TX:b:t=pau	!	!	!	!
!	!LO:DY:a	!	!	!	!LO:DY:a	!	!	!	!	!	!	!	!	!	!LO:TX:a:t=20	!	!LO:TX:a:t=21.	!	!
8B-\L	p	16B-\LL	.	16d/LL	pp	4.ff\	p	2ryy	2ryy	2ryy	4.ff\	Be-	0r	.	0r	.	0r	.	2ryy
.	.	16d\	.	16f/	.	.	.	.	.	.	.	.	.	.	.	.	.	.	.
8B-\	.	16B-\	.	16d/	.	.	.	.	.	.	.	.	.	.	.	.	.	.	.
.	.	16d\JJ	.	16f/JJ	.	.	.	.	.	.	.	.	.	.	.	.	.	.	.
8B-\	.	16B-\LL	.	16d/LL	.	.	.	.	.	.	.	.	.	.	.	.	.	.	.
.	.	16d\	.	16f/	.	.	.	.	.	.	.	.	.	.	.	.	.	.	.
8B-\J	.	16B-\	.	16d/	.	16dd\LL	.	.	.	.	16dd\LL	-ne-	.	.	.	.	.	.	.
.	.	16d\JJ	.	16f/JJ	.	16b-\JJ	.	.	.	.	16b-\JJ	.	.	.	.	.	.	.	.
*Xtremolo	*	*	*	*	*	*	*	*	*	*	*	*	*	*	*	*	*	*	*
=48	=48	=48	=48	=48	=48	=48	=48	=48	=48	=48	=48	=48	=48	=48	=48	=48	=48	=48	=48
!LO:TX:t=P:problem=mixed beam	!	!	!	!	!	!	!	!	!	!	!	!	!	!	!	!	!	!	!
8F\L	.	16c\LL	.	16An/LL	.	8.cc\L	.	2ryy	2ryy	2ryy	8.cc\L	-di-	.	.	.	.	.	.	2ryy
.	.	16An\	.	16c/	.	.	.	.	.	.	.	.	.	.	.	.	.	.	.
8FF/	.	16c\	.	16A/	.	.	.	.	.	.	.	.	.	.	.	.	.	.	.
.	.	16A\JJ	.	16c/JJ	.	16ee-\Jk	.	.	.	.	16ee-\Jk	.	.	.	.	.	.	.	.
8BB-/	.	8B-\L	.	8B-/L	.	16dd\LL	.	.	.	.	16dd\LL	-ctus	.	.	.	.	.	.	.
.	.	.	.	.	.	16ff\	.	.	.	.	16ff\JJ	.	.	.	.	.	.	.	.
8D/J	.	8d\J	.	8f/J	.	16b-\	.	.	.	.	16b-\LL	qui	.	.	.	.	.	.	.
.	.	.	.	.	.	16dd\JJ	.	.	.	.	16dd\JJ	.	.	.	.	.	.	.	.
=49	=49	=49	=49	=49	=49	=49	=49	=49	=49	=49	=49	=49	=49	=49	=49	=49	=49	=49	=49
!LO:TX:t=P:problem=mixed beam	!	!LO:TX:t=P:problem=mixed beam	!	!	!	!	!	!	!	!	!	!	!	!	!	!	!	!	!
8E-\L	.	8e-\L	.	8g/L	.	16dd\LL	.	2ryy	2ryy	2ryy	16dd\LL	ve-	.	.	.	.	.	.	2ryy
.	.	.	.	.	.	16cc\	.	.	.	.	16cc\	.	.	.	.	.	.	.	.
8E-\	.	8e-\	.	16g/L	.	16ee-\	.	.	.	.	16ee-\	.	.	.	.	.	.	.	.
.	.	.	.	16e-/JJ	.	16cc\JJ	.	.	.	.	16cc\JJ	.	.	.	.	.	.	.	.
8F\	.	8f\	.	8d/L	.	8b-/L	.	.	.	.	8b-\L	.	.	.	.	.	.	.	.
8FF/J	.	8F/J	.	8c/J	.	8an/J	.	.	.	.	8an\J	.	.	.	.	.	.	.	.
=50	=50	=50	=50	=50	=50	=50	=50	=50	=50	=50	=50	=50	=50	=50	=50	=50	=50	=50	=50
!LO:TX:t=P:problem=mixed beam	!	!	!	!	!	!	!	!	!	!	!	!	!	!	!	!	!	!	!
8BB-/L	.	8B-\L	.	8d/L	.	16b-\LL	.	2ryy	2ryy	2ryy	8b-\	-nit	.	.	.	.	.	.	2ryy
.	.	.	.	.	.	16b-\	.	.	.	.	.	.	.	.	.	.	.	.	.
8B-\	.	8B-\	.	8d/	.	(16cc\	.	.	.	.	8r	.	.	.	.	.	.	.	.
.	.	.	.	.	.	16b-\JJ)	.	.	.	.	.	.	.	.	.	.	.	.	.
8d\	.	8d\	.	8f/	.	16r	.	.	.	.	16r	.	.	.	.	.	.	.	.
.	.	.	.	.	.	16dd\LL	.	.	.	.	16dd\LL	qui	.	.	.	.	.	.	.
8d\J	.	8d\J	.	8f/J	.	16ee-\	.	.	.	.	16ee-\	.	.	.	.	.	.	.	.
.	.	.	.	.	.	16ff\JJ	.	.	.	.	16ff\JJ	.	.	.	.	.	.	.	.
=51	=51	=51	=51	=51	=51	=51	=51	=51	=51	=51	=51	=51	=51	=51	=51	=51	=51	=51	=51
*	*	*	*	*tremolo	*	*	*	*	*	*	*	*	*	*	*	*	*	*	*
8c\L	.	8An\L	.	8f/L	.	(16ff\LL	.	2ryy	2ryy	2ryy	16ff\LL	ve-	0r	.	0r	.	0r	.	2ryy
.	.	.	.	.	.	16ee-\)	.	.	.	.	16ee-\JJ	.	.	.	.	.	.	.	.
8c\	.	8A\	.	8f/	.	16ee-\	.	.	.	.	8ee-\	-nit	.	.	.	.	.	.	.
.	.	.	.	.	.	16ee-\JJ	.	.	.	.	.	.	.	.	.	.	.	.	.
8An\	.	8c\	.	8f/	.	16r	.	.	.	.	16r	.	.	.	.	.	.	.	.
.	.	.	.	.	.	16cc\LL	.	.	.	.	16cc\LL	in	.	.	.	.	.	.	.
8A\J	.	8c\J	.	8f/J	.	16dd\	.	.	.	.	16dd\	.	.	.	.	.	.	.	.
.	.	.	.	.	.	16ee-\JJ	.	.	.	.	16ee-\JJ	.	.	.	.	.	.	.	.
=52	=52	=52	=52	=52	=52	=52	=52	=52	=52	=52	=52	=52	=52	=52	=52	=52	=52	=52	=52
*	*	*tremolo	*	*	*	*	*	*	*	*	*	*	*	*	*	*	*	*	*
8B-\L	.	8B-/L	.	8f/L	.	16ee-\LL	.	2ryy	2ryy	2ryy	16ee-\	no-	.	.	.	.	.	.	2ryy
.	.	.	.	.	.	16dd\	.	.	.	.	16dd\	-mi-	.	.	.	.	.	.	.
8B-\	.	8B-/	.	8f/	.	16dd\	.	.	.	.	8dd\	-ne	.	.	.	.	.	.	.
.	.	.	.	.	.	16dd\JJ	.	.	.	.	.	.	.	.	.	.	.	.	.
8D\	.	8B-/	.	8f/	.	16r	.	.	.	.	8r	.	.	.	.	.	.	.	.
!	!	!	!	!	!	!LO:TX:t=P:problem=mixed beam	!	!	!	!	!	!	!	!	!	!	!	!	!
.	.	.	.	.	.	(16dd\LL	.	.	.	.	.	.	.	.	.	.	.	.	.
8D\J	.	8B-/J	.	8f/J	.	16ff\)	.	.	.	.	16ff\LL	in	.	.	.	.	.	.	.
.	.	.	.	.	.	16a-X\JJ	.	.	.	.	16a-X\JJ	.	.	.	.	.	.	.	.
*	*	*	*	*Xtremolo	*	*	*	*	*	*	*	*	*	*	*	*	*	*	*
=53	=53	=53	=53	=53	=53	=53	=53	=53	=53	=53	=53	=53	=53	=53	=53	=53	=53	=53	=53
*tremolo	*	*	*	*	*	*	*	*	*	*	*	*	*	*	*	*	*	*	*
8E-\L	.	8B-/L	.	16f/LL	.	(16a-/LL	.	2ryy	2ryy	2ryy	16a-\	no-	.	.	.	.	.	.	2ryy
.	.	.	.	16e-/J	.	16g/)	.	.	.	.	16g\	-mi-	.	.	.	.	.	.	.
8E-\	.	8B-/	.	8e-/J	.	16g/	.	.	.	.	8g\	-ne	.	.	.	.	.	.	.
.	.	.	.	.	.	16g/JJ	.	.	.	.	.	.	.	.	.	.	.	.	.
8E-\	.	8B-/	.	8g/L	.	16r	.	.	.	.	8r	.	.	.	.	.	.	.	.
.	.	.	.	.	.	(16b-\LL	.	.	.	.	.	.	.	.	.	.	.	.	.
8E-\J	.	8B-/J	.	8g/J	.	16ee-\)	.	.	.	.	[8ee-\	Do-	.	.	.	.	.	.	.
.	.	.	.	.	.	16ee-|>\JJ	.	.	.	.	.	.	.	.	.	.	.	.	.
*Xtremolo	*	*Xtremolo	*	*	*	*	*	*	*	*	*	*	*	*	*	*	*	*	*
=54	=54	=54	=54	=54	=54	=54	=54	=54	=54	=54	=54	=54	=54	=54	=54	=54	=54	=54	=54
!LO:TX:t=P:problem=mixed beam	!	!	!	!	!	!	!	!	!	!	!	!	!	!	!	!	!	!	!
8B-\L	.	8B-/L	.	8g/L	.	8ee-T\L	.	2ryy	2ryy	2ryy	16ee-\]	.	.	.	.	.	.	.	2ryy
.	.	.	.	.	.	.	.	.	.	.	32dd\LLL	-mi-	.	.	.	.	.	.	.
.	.	.	.	.	.	.	.	.	.	.	32ee-\JJJ	.	.	.	.	.	.	.	.
8BB-/J	.	8B-/J	.	8f/J	.	8dd\J	.	.	.	.	8dd\	-ni	.	.	.	.	.	.	.
16B-|>\LL	.	16b-\LL	.	4r	.	4r	.	.	.	.	4r	.	.	.	.	.	.	.	.
16A-|>\	.	16a-\	.	.	.	.	.	.	.	.	.	.	.	.	.	.	.	.	.
16G|>\	.	16g\	.	.	.	.	.	.	.	.	.	.	.	.	.	.	.	.	.
16F|>\JJ	.	16f\JJ	.	.	.	.	.	.	.	.	.	.	.	.	.	.	.	.	.
=55	=55	=55	=55	=55	=55	=55	=55	=55	=55	=55	=55	=55	=55	=55	=55	=55	=55	=55	=55
*tremolo	*	*	*	*	*	*	*	*	*	*	*	*	*	*	*	*	*	*	*
!	!	!LO:TX:t=P:problem=mixed beam	!	!	!	!	!	!	!	!	!	!	!	!	!	!	!	!	!
8E-\L	.	16e-\LL	.	16g/LL	.	4.b-\	.	2ryy	2ryy	2ryy	4.b-\	Be-	0r	.	0r	.	0r	.	2ryy
.	.	16G/	.	16e-/	.	.	.	.	.	.	.	.	.	.	.	.	.	.	.
8E-\	.	16e-\	.	16g/	.	.	.	.	.	.	.	.	.	.	.	.	.	.	.
.	.	16G/JJ	.	16e-/JJ	.	.	.	.	.	.	.	.	.	.	.	.	.	.	.
!	!	!LO:TX:t=P:problem=mixed beam	!	!	!	!	!	!	!	!	!	!	!	!	!	!	!	!	!
8E-\	.	16e-\LL	.	16g/LL	.	.	.	.	.	.	.	.	.	.	.	.	.	.	.
.	.	16G/J	.	16e-/	.	.	.	.	.	.	.	.	.	.	.	.	.	.	.
8E-\J	.	8A-/J	.	16g/	.	16ee-\LL	.	.	.	.	16ee-\LL	-ne-	.	.	.	.	.	.	.
.	.	.	.	16a-/JJ	.	16cc\JJ	.	.	.	.	16cc\JJ	.	.	.	.	.	.	.	.
*Xtremolo	*	*	*	*	*	*	*	*	*	*	*	*	*	*	*	*	*	*	*
=56	=56	=56	=56	=56	=56	=56	=56	=56	=56	=56	=56	=56	=56	=56	=56	=56	=56	=56	=56
8E-\L	.	8B-/L	.	8.g/L	.	8.b-/L	.	2ryy	2ryy	2ryy	8.b-\L	-di-	.	.	.	.	.	.	2ryy
8BB-\	.	8B-/	.	.	.	.	.	.	.	.	.	.	.	.	.	.	.	.	.
.	.	.	.	16f/K	.	16a-/K	.	.	.	.	16a-\Jk	.	.	.	.	.	.	.	.
8E-\J	.	8B-/J	.	8e-/	.	8g/	.	.	.	.	8g\	-ctus	.	.	.	.	.	.	.
8r	.	8r	.	8g/J	.	8b-/J	.	.	.	.	8b-\	qui	.	.	.	.	.	.	.
=57	=57	=57	=57	=57	=57	=57	=57	=57	=57	=57	=57	=57	=57	=57	=57	=57	=57	=57	=57
!LO:TX:t=P:problem=mixed beam	!	!	!	!	!	!	!	!	!	!	!	!	!	!	!	!	!	!	!
8E-\L	.	8e-\L	.	16g/LL	.	16b-/LL	.	2ryy	2ryy	2ryy	16b-\LL	ve-	.	.	.	.	.	.	2ryy
.	.	.	.	16e-/	.	16g/	.	.	.	.	16g\	.	.	.	.	.	.	.	.
8A-\	.	8A-\	.	16a-/	.	16cc/	.	.	.	.	16cc\	.	.	.	.	.	.	.	.
.	.	.	.	16f/JJ	.	16a-/JJ	.	.	.	.	16a-\JJ	.	.	.	.	.	.	.	.
8B-\	.	8B-\	.	8e-/L	.	16g/LL	.	.	.	.	16g/LL	.	.	.	.	.	.	.	.
.	.	.	.	.	.	16e-/	.	.	.	.	16e-/	.	.	.	.	.	.	.	.
8BB-/J	.	8B-\J	.	8d/J	.	16a-/	.	.	.	.	16a-/	.	.	.	.	.	.	.	.
.	.	.	.	.	.	16f/JJ	.	.	.	.	16f/JJ	.	.	.	.	.	.	.	.
=58	=58	=58	=58	=58	=58	=58	=58	=58	=58	=58	=58	=58	=58	=58	=58	=58	=58	=58	=58
8E-\	.	8e-\	.	4e-/	.	16e-/LL	.	2ryy	2ryy	2ryy	8e-/	-nit	.	.	.	.	.	.	2ryy
.	.	.	.	.	.	16g/	.	.	.	.	.	.	.	.	.	.	.	.	.
8r	.	8r	.	.	.	16b-/	.	.	.	.	8r	.	.	.	.	.	.	.	.
.	.	.	.	.	.	16ee-/JJ	.	.	.	.	.	.	.	.	.	.	.	.	.
8r	.	8r	.	8r	.	16gg\LL	.	.	.	.	16gg\LL	in	.	.	.	.	.	.	.
.	.	.	.	.	.	16ee-\	.	.	.	.	16ee-\	.	.	.	.	.	.	.	.
8E-\	.	8E-/	.	8g/	.	16bb-\	.	.	.	.	16bb-\	.	.	.	.	.	.	.	.
.	.	.	.	.	.	16gg\JJ	.	.	.	.	16gg\JJ	.	.	.	.	.	.	.	.
=59	=59	=59	=59	=59	=59	=59	=59	=59	=59	=59	=59	=59	=59	=59	=59	=59	=59	=59	=59
*	*	*tremolo	*	*	*	*	*	*	*	*	*	*	*	*	*	*	*	*	*
8BB-/L	.	8B-/L	.	8d/L	.	16ff\LL	.	2ryy	2ryy	2ryy	16ff\LL	no-	0r	.	0r	.	0r	.	2ryy
.	.	.	.	.	.	16dd\	.	.	.	.	16dd\	.	.	.	.	.	.	.	.
8BB-/	.	8B-/	.	8d/	.	16cc\	.	.	.	.	16cc\	.	.	.	.	.	.	.	.
.	.	.	.	.	.	16b-\JJ	.	.	.	.	16b-\JJ	.	.	.	.	.	.	.	.
8D/	.	8B-/	.	8f/	.	16an/LL	.	.	.	.	16an\LL	-mi-	.	.	.	.	.	.	.
.	.	.	.	.	.	16b-/	.	.	.	.	16b-\	.	.	.	.	.	.	.	.
8D/J	.	8B-/J	.	8f/J	.	16f/	.	.	.	.	16f\	.	.	.	.	.	.	.	.
.	.	.	.	.	.	16a-X/JJ	.	.	.	.	16a-X\JJ	.	.	.	.	.	.	.	.
*	*	*Xtremolo	*	*	*	*	*	*	*	*	*	*	*	*	*	*	*	*	*
=60	=60	=60	=60	=60	=60	=60	=60	=60	=60	=60	=60	=60	=60	=60	=60	=60	=60	=60	=60
8E-\	.	8B-/	.	8e-/	.	16g\LL	.	2ryy	2ryy	2ryy	8g\	-ne	.	.	.	.	.	.	2ryy
.	.	.	.	.	.	16b-\	.	.	.	.	.	.	.	.	.	.	.	.	.
8r	.	8r	.	8r	.	16ee-\	.	.	.	.	8r	.	.	.	.	.	.	.	.
.	.	.	.	.	.	16gg\JJ	.	.	.	.	.	.	.	.	.	.	.	.	.
8r	.	8r	.	16r	.	16bb-\LL	.	.	.	.	8r	.	.	.	.	.	.	.	.
.	.	.	.	16b-/LL	.	16gg\	.	.	.	.	.	.	.	.	.	.	.	.	.
8E-\	.	8B-/	.	16a-/	.	16ff\	.	.	.	.	[8ee-\	Do-	.	.	.	.	.	.	.
.	.	.	.	16g/JJ	.	16ee-\JJ	.	.	.	.	.	.	.	.	.	.	.	.	.
=61	=61	=61	=61	=61	=61	=61	=61	=61	=61	=61	=61	=61	=61	=61	=61	=61	=61	=61	=61
*	*	*tremolo	*	*	*	*	*	*	*	*	*	*	*	*	*	*	*	*	*
.	.	.	.	.	.	8qqff/	.	.	.	.	.	.	.	.	.	.	.	.	.
!LO:TX:t=P:problem=mixed beam	!	!	!	!	!	!	!	!	!	!	!	!	!	!	!	!	!	!	!
8B-\L	.	8B-/L	.	8g/L	.	8ee-\L	.	2ryy	2ryy	2ryy	16ee-\]	.	.	.	.	.	.	.	2ryy
.	.	.	.	.	.	.	.	.	.	.	32dd\LLL	-mi-	.	.	.	.	.	.	.
.	.	.	.	.	.	.	.	.	.	.	32ee-\JJJ	.	.	.	.	.	.	.	.
8BB-/	.	8B-/	.	8f/J	.	8dd\J	.	.	.	.	8dd\	-ni	.	.	.	.	.	.	.
8B-\	.	8B-/	.	(16d/LL	.	(16b-\LL	.	.	.	.	4r	.	.	.	.	.	.	.	.
.	.	.	.	16e-/)	.	16cc\)	.	.	.	.	.	.	.	.	.	.	.	.	.
8A-\J	.	8B-/J	.	(16e-/	.	(16cc\	.	.	.	.	.	.	.	.	.	.	.	.	.
.	.	.	.	16f/JJ)	.	16dd\JJ)	.	.	.	.	.	.	.	.	.	.	.	.	.
*	*	*Xtremolo	*	*	*	*	*	*	*	*	*	*	*	*	*	*	*	*	*
=62	=62	=62	=62	=62	=62	=62	=62	=62	=62	=62	=62	=62	=62	=62	=62	=62	=62	=62	=62
8G\L	.	8B-/L	.	8g/L	.	8.ee-\L	.	2ryy	2ryy	2ryy	8.ee-\L	Be-	.	.	.	.	.	.	2ryy
8E-\	.	8G/	.	8b-/	.	.	.	.	.	.	.	.	.	.	.	.	.	.	.
.	.	.	.	.	.	32dd\LL	.	.	.	.	32dd\LL	.	.	.	.	.	.	.	.
.	.	.	.	.	.	32ee-\JJJ	.	.	.	.	32ee-\JJJ	.	.	.	.	.	.	.	.
8E-\	.	8G/	.	8b-/	.	16aa-\LL	.	.	.	.	16aa-\LL	.	.	.	.	.	.	.	.
.	.	.	.	.	.	16gg\	.	.	.	.	16gg\	.	.	.	.	.	.	.	.
8E-\J	.	8G/J	.	8b-/J	.	16ff\	.	.	.	.	16ff\	-ne-	.	.	.	.	.	.	.
.	.	.	.	.	.	16ee-\JJ	.	.	.	.	16ee-\JJ	.	.	.	.	.	.	.	.
=63	=63	=63	=63	=63	=63	=63	=63	=63	=63	=63	=63	=63	=63	=63	=63	=63	=63	=63	=63
*tremolo	*	*tremolo	*	*tremolo	*	*	*	*	*	*	*	*	*	*	*	*	*	*	*
8D\L	.	8d\L	.	8b-/L	.	(16een\LL	.	2ryy	2ryy	2ryy	16een\LL	-di-	0r	.	0r	.	0r	.	2ryy
.	.	.	.	.	.	16ff\JJ)	.	.	.	.	16ff\JJ	.	.	.	.	.	.	.	.
8D\	.	8d\	.	8b-/	.	16r	.	.	.	.	8ff\	-ctus	.	.	.	.	.	.	.
.	.	.	.	.	.	16ff|>\LL	.	.	.	.	.	.	.	.	.	.	.	.	.
8D\	.	8d\	.	8b-/	.	(16ee\	.	.	.	.	8r	.	.	.	.	.	.	.	.
.	.	.	.	.	.	16ff\JJ)	.	.	.	.	.	.	.	.	.	.	.	.	.
8D\J	.	8d\J	.	8b-/J	.	16r	.	.	.	.	8ff\	qui	.	.	.	.	.	.	.
.	.	.	.	.	.	16ff\	.	.	.	.	.	.	.	.	.	.	.	.	.
=64	=64	=64	=64	=64	=64	=64	=64	=64	=64	=64	=64	=64	=64	=64	=64	=64	=64	=64	=64
8D\L	.	8d\L	.	8b-/L	.	8.ff\L	.	2ryy	2ryy	2ryy	8.ff\L	ve-	.	.	.	.	.	.	2ryy
8D\	.	8d\	.	8b-/	.	.	.	.	.	.	.	.	.	.	.	.	.	.	.
!	!	!	!	!	!	!LO:SIC:v:s=32een\LL	!	!	!	!	!	!	!	!	!	!	!	!	!
.	.	.	.	.	.	32ee-\LL	.	.	.	.	32een\LL	.	.	.	.	.	.	.	.
.	.	.	.	.	.	32ff\JJJ	.	.	.	.	32ff\JJJ	.	.	.	.	.	.	.	.
8D\	.	8d\	.	8b-/	.	16bb-\LL	.	.	.	.	16bb-\LL	.	.	.	.	.	.	.	.
.	.	.	.	.	.	16aa-\	.	.	.	.	16aa-\	.	.	.	.	.	.	.	.
8D\J	.	8d\J	.	8b-/J	.	16gg\	.	.	.	.	16gg\	.	.	.	.	.	.	.	.
.	.	.	.	.	.	16ff\JJ	.	.	.	.	16ff\JJ	.	.	.	.	.	.	.	.
=65	=65	=65	=65	=65	=65	=65	=65	=65	=65	=65	=65	=65	=65	=65	=65	=65	=65	=65	=65
!	!	!LO:TX:a:Bi:t=Volti	!	!	!	!	!	!	!	!	!	!	!	!	!	!	!	!	!
8E-\L	.	8e-\L	.	8b-/L	.	(16ff#X\LL	.	2ryy	2ryy	2ryy	16ff#X\LL	-nit	.	.	.	.	.	.	2ryy
.	.	.	.	.	.	16gg\JJ)	.	.	.	.	16gg\JJ	.	.	.	.	.	.	.	.
8E-\	.	8e-\	.	8b-/	.	16r	.	.	.	.	8r	.	.	.	.	.	.	.	.
.	.	.	.	.	.	16gg\LL	.	.	.	.	.	.	.	.	.	.	.	.	.
8E-\	.	8e-\	.	8b-/	.	(16ff#\	.	.	.	.	8r	.	.	.	.	.	.	.	.
.	.	.	.	.	.	16gg\JJ)	.	.	.	.	.	.	.	.	.	.	.	.	.
8E-\J	.	8e-\J	.	8b-/J	.	16r	.	.	.	.	8ee-\	in	.	.	.	.	.	.	.
.	.	.	.	.	.	16ee-\	.	.	.	.	.	.	.	.	.	.	.	.	.
*Xtremolo	*	*Xtremolo	*	*Xtremolo	*	*	*	*	*	*	*	*	*	*	*	*	*	*	*
=66	=66	=66	=66	=66	=66	=66	=66	=66	=66	=66	=66	=66	=66	=66	=66	=66	=66	=66	=66
*	*	*	*	*	*	*	*	*	*	*	*Xtuplet	*	*	*	*	*	*	*	*
8A-\L	.	8A-/L	.	8e-/L	.	24cc\LL	.	2ryy	2ryy	2ryy	24cc\LL	no-	.	.	.	.	.	.	2ryy
.	.	.	.	.	.	24dd\	.	.	.	.	24dd\	.	.	.	.	.	.	.	.
.	.	.	.	.	.	24ee-\	.	.	.	.	24ee-\JJ	.	.	.	.	.	.	.	.
8A-\J	.	8A-/	.	8e-/	.	24cc\	.	.	.	.	24cc\LL	-mi-	.	.	.	.	.	.	.
.	.	.	.	.	.	24b-\	.	.	.	.	24b-\	-ne	.	.	.	.	.	.	.
.	.	.	.	.	.	24a-\JJ	.	.	.	.	24a-\JJ	.	.	.	.	.	.	.	.
!LO:TX:t=P:problem=mixed beam	!	!	!	!	!	!	!	!	!	!	!	!	!	!	!	!	!	!	!
8B-\L	.	8B-/	.	8e-/	.	8g/L	.	.	.	.	8g/	Do-	.	.	.	.	.	.	.
!	!	!	!	!	!	!	!	!	!	!	!LO:TX:a:B:t=t	!	!	!	!	!	!	!	!
8BB-/J	.	8B-/J	.	8d/J	.	8fT/J	.	.	.	.	8f/	-mi-	.	.	.	.	.	.	.
*	*	*	*	*	*	*	*	*	*	*	*tuplet	*	*	*	*	*	*	*	*
=67	=67	=67	=67	=67	=67	=67	=67	=67	=67	=67	=67	=67	=67	=67	=67	=67	=67	=67	=67
8E-\	.	8e-\	.	16e-/LL	.	8e-/	.	2ryy	2ryy	2ryy	8e-/	-ni	8r	.	8r	.	2r	.	2ryy
.	.	.	.	16B-/	.	.	.	.	.	.	.	.	.	.	.	.	.	.	.
!	!	!	!	!	!	!	!	!	!	!	!	!	!	!LO:DY:a	!	!LO:DY:a	!	!	!
8r	.	8r	.	16B-/	.	8r	.	.	.	.	8r	.	8B-/L	p	8b-\L	p	.	.	.
.	.	.	.	16B-/JJ	.	.	.	.	.	.	.	.	.	.	.	.	.	.	.
*	*	*	*	*tremolo	*	*	*	*	*	*	*	*	*	*	*	*	*	*	*
!	!	!LO:N:vis=16	!	!	!	!	!	!	!	!	!	!	!	!	!	!	!	!	!
4r	.	8r	.	16B-/LL	.	16r	.	.	.	.	8r	.	8B-/	.	8b-\	.	.	.	.
.	.	.	.	16B-/	.	16g/LL	.	.	.	.	.	.	.	.	.	.	.	.	.
.	.	16e-\LL	.	16B-/	.	(16g/	.	.	.	.	8b-\	o-	8B-/J	.	8b-\J	.	.	.	.
.	.	16g\JJ	.	16B-/JJ	.	16b-/JJ)	.	.	.	.	.	.	.	.	.	.	.	.	.
=68	=68	=68	=68	=68	=68	=68	=68	=68	=68	=68	=68	=68	=68	=68	=68	=68	=68	=68	=68
!	!	!	!	!	!	!	!	!	!	!	!LO:TX:a:B:t=t	!	!	!	!	!	!	!	!
8BB-\L	.	8f\L	.	16B-/LL	.	(16b-/LL	.	2ryy	2ryy	2ryy	2b-\	-San-	2B-/	.	2b-\	.	2ff\	p	2ryy
.	.	.	.	16B-/	.	16a-/J)	.	.	.	.	.	.	.	.	.	.	.	.	.
8D\	.	8B-\	.	16B-/	.	8f/J	.	.	.	.	.	.	.	.	.	.	.	.	.
.	.	.	.	16B-/	.	.	.	.	.	.	.	.	.	.	.	.	.	.	.
8F\	.	8d\	.	16B-/	.	16r	.	.	.	.	.	.	.	.	.	.	.	.	.
.	.	.	.	16B-/	.	16f|</LL	.	.	.	.	.	.	.	.	.	.	.	.	.
8D\J	.	8f\J	.	16B-/	.	(16f/	.	.	.	.	.	.	.	.	.	.	.	.	.
.	.	.	.	16B-/JJ	.	16a-/JJ)	.	.	.	.	.	.	.	.	.	.	.	.	.
=69	=69	=69	=69	=69	=69	=69	=69	=69	=69	=69	=69	=69	=69	=69	=69	=69	=69	=69	=69
8BB-\L	.	8e-\L	.	16B-/LL	.	(16g/LL	.	2ryy	2ryy	2ryy	4b-\	-na	2B-/	.	2b-\	.	2ee-\	.	2ryy
.	.	.	.	16B-/	.	16b-/)	.	.	.	.	.	.	.	.	.	.	.	.	.
8E-\	.	8g\	.	16B-/	.	16e-/	.	.	.	.	.	.	.	.	.	.	.	.	.
.	.	.	.	16B-/	.	16e-/JJ	.	.	.	.	.	.	.	.	.	.	.	.	.
8G\	.	8e-\	.	16B-/	.	(16e-/LL	.	.	.	.	8b-\	in	.	.	.	.	.	.	.
.	.	.	.	16B-/	.	16g/)	.	.	.	.	.	.	.	.	.	.	.	.	.
8E-\J	.	8g\J	.	16B-/	.	(16g/	.	.	.	.	8b-\	ex-	.	.	.	.	.	.	.
.	.	.	.	16B-/JJ	.	16b-/JJ)	.	.	.	.	.	.	.	.	.	.	.	.	.
=70	=70	=70	=70	=70	=70	=70	=70	=70	=70	=70	=70	=70	=70	=70	=70	=70	=70	=70	=70
8BB-\L	.	8f\L	.	16B-/LL	.	(16b-/LL	.	2ryy	2ryy	2ryy	2b-\	-cel-	2B-/	.	2b-\	.	2ff\	.	2ryy
.	.	.	.	16B-/	.	16a-/J)	.	.	.	.	.	.	.	.	.	.	.	.	.
8D\	.	8B-\	.	16B-/	.	8f/J	.	.	.	.	.	.	.	.	.	.	.	.	.
.	.	.	.	16B-/	.	.	.	.	.	.	.	.	.	.	.	.	.	.	.
8F\	.	8d\	.	16B-/	.	16r	.	.	.	.	.	.	.	.	.	.	.	.	.
.	.	.	.	16B-/	.	16f/LL	.	.	.	.	.	.	.	.	.	.	.	.	.
8D\J	.	8f\J	.	16B-/	.	(16f/	.	.	.	.	.	.	.	.	.	.	.	.	.
.	.	.	.	16B-/JJ	.	16a-/JJ)	.	.	.	.	.	.	.	.	.	.	.	.	.
*	*	*	*	*Xtremolo	*	*	*	*	*	*	*	*	*	*	*	*	*	*	*
=71	=71	=71	=71	=71	=71	=71	=71	=71	=71	=71	=71	=71	=71	=71	=71	=71	=71	=71	=71
!	!	!	!	!	!	!LO:TX:t=P:problem=mixed beam	!	!	!	!	!	!	!	!	!	!	!	!	!
8E-\L	.	8e-\L	.	8B-/L	.	(16g/LL	.	2ryy	2ryy	2ryy	8b-\	-sis	8e-\	.	8b-\	.	8ee-\	.	2ryy
.	.	.	.	.	.	16gg\)	.	.	.	.	.	.	.	.	.	.	.	.	.
8E-\	.	8e-\	.	8B-/	.	16ee-|>\	.	.	.	.	8ee-\	o-	8r	.	8r	.	8r	.	.
.	.	.	.	.	.	16ee-|>\JJ	.	.	.	.	.	.	.	.	.	.	.	.	.
8G\	.	8B-\	.	8e-/	.	(16ee-\LL	.	.	.	.	16ee-\LL	-San-	4r	.	4r	.	4r	.	.
.	.	.	.	.	.	16dd-X\)	.	.	.	.	16dd-X\J	.	.	.	.	.	.	.	.
8G\J	.	8B-\J	.	8e-/J	.	16dd-\	.	.	.	.	8dd-\J	.	.	.	.	.	.	.	.
.	.	.	.	.	.	16dd-\JJ	.	.	.	.	.	.	.	.	.	.	.	.	.
=72	=72	=72	=72	=72	=72	=72	=72	=72	=72	=72	=72	=72	=72	=72	=72	=72	=72	=72	=72
*	*	*tremolo	*	*	*	*	*	*	*	*	*	*	*	*	*	*	*	*	*
!	!	!	!	!LO:TX:t=P:problem=mixed beam	!	!	!	!	!	!	!	!	!LO:TX:a:t=1	!	!	!	!LO:TX:a:t=1.	!	!
2A-\	.	8A-/L	.	8e-/L	.	16cc\LL	.	2ryy	2ryy	2ryy	8cc\	-na	2r	.	2r	.	2r	.	2ryy
.	.	.	.	.	.	16een\	.	.	.	.	.	.	.	.	.	.	.	.	.
.	.	8A-/	.	8c/	.	16ff\	.	.	.	.	8r	.	.	.	.	.	.	.	.
.	.	.	.	.	.	16aa-\JJ	.	.	.	.	.	.	.	.	.	.	.	.	.
.	.	8A-/	.	8c/	.	8ccc\L	.	.	.	.	16r	.	.	.	.	.	.	.	.
.	.	.	.	.	.	.	.	.	.	.	16aa-\LL	in	.	.	.	.	.	.	.
.	.	8A-/J	.	8cc\J	.	32bb-\LL	.	.	.	.	16gg\JJ	.	.	.	.	.	.	.	.
.	.	.	.	.	.	32aa-\	.	.	.	.	.	.	.	.	.	.	.	.	.
.	.	.	.	.	.	32gg\	.	.	.	.	16ff\	ex-	.	.	.	.	.	.	.
.	.	.	.	.	.	32ff\JJJ	.	.	.	.	.	.	.	.	.	.	.	.	.
*	*	*Xtremolo	*	*	*	*	*	*	*	*	*	*	*	*	*	*	*	*	*
=73	=73	=73	=73	=73	=73	=73	=73	=73	=73	=73	=73	=73	=73	=73	=73	=73	=73	=73	=73
*	*	*	*	*tremolo	*	*	*	*	*	*	*	*	*	*	*	*	*	*	*
!LO:TX:t=P:problem=mixed beam	!	!	!	!	!	!	!	!	!	!	!	!	!	!	!	!	!	!	!
8B-\L	.	8B-\L	.	16g/LL	.	8ee-\L	.	2ryy	2ryy	2ryy	4ee-\	-cel-	4e-\	.	4g\	.	4g/	.	2ryy
.	.	.	.	16g/	.	.	.	.	.	.	.	.	.	.	.	.	.	.	.
8B-\	.	8B-\	.	16g/	.	(32ee-\LL	.	.	.	.	.	.	.	.	.	.	.	.	.
.	.	.	.	.	.	32ff\	.	.	.	.	.	.	.	.	.	.	.	.	.
.	.	.	.	16g/JJ	.	32ee-\	.	.	.	.	.	.	.	.	.	.	.	.	.
.	.	.	.	.	.	32ff\JJJ)	.	.	.	.	.	.	.	.	.	.	.	.	.
8BB-/	.	8d\	.	16a-/LL	.	4ffT\	.	.	.	.	4ff\	.	4B-/	.	4f\	.	4a-/	.	.
.	.	.	.	16a-/	.	.	.	.	.	.	.	.	.	.	.	.	.	.	.
8BB-/J	.	8d\J	.	16a-/	.	.	.	.	.	.	.	.	.	.	.	.	.	.	.
.	.	.	.	16a-/JJ	.	.	.	.	.	.	.	.	.	.	.	.	.	.	.
*	*	*	*	*Xtremolo	*	*	*	*	*	*	*	*	*	*	*	*	*	*	*
=74	=74	=74	=74	=74	=74	=74	=74	=74	=74	=74	=74	=74	=74	=74	=74	=74	=74	=74	=74
*	*	*	*	*	*	*	*	*	*	*	*	*	*	*	*tremolo	*	*	*	*
!	!	!	!LO:DY:a	!	!LO:DY:a	!	!	!	!	!	!	!	!	!LO:DY:a	!	!	!	!	!
16E-\LL	f	16e-\LL	f	(16g/LL	f	16ee-\KL	f	2ryy	2ryy	2ryy	8ee-\	-sis	8G/L	f	8e-\L	f	(16g\LL	.	2ryy
!LO:TX:t=P:problem=w źródle wykreślone 16E-	!	!	!	!	!	!	!	!	!	!	!	!	!	!	!	!	!	!	!
16G\	.	16e-\	.	16b-/)	.	8ee-\	.	.	.	.	.	.	.	.	.	.	16b-\)	.	.
16G\	.	16e-\	.	16b-|>/	.	.	.	.	.	.	8r	.	8E-/	.	8e-\	.	16b-|>\	.	.
16G\JJ	.	16e-\JJ	.	16b-|>/JJ	.	8ee-\	.	.	.	.	.	.	.	.	.	.	16b-|>\JJ	.	.
16G\LL	.	(16e-\LL	.	(16b-\LL	.	.	.	.	.	.	4r	.	8E-/	.	8e-\	.	(16b-\LL	.	.
16B-\	.	16g\)	.	16dd-X\)	.	8ee-\	.	.	.	.	.	.	.	.	.	.	16dd-X\)	.	.
16B-\	.	16g|>\	.	16dd-|>\	.	.	.	.	.	.	.	.	8E-/J	.	8e-\J	.	16dd-|>\	.	.
16B-\JJ	.	16g|>\JJ	.	16dd-|>\JJ	.	[16ee-\Jk	.	.	.	.	.	.	.	.	.	.	16dd-|>\JJ	.	.
*	*	*	*	*	*	*	*	*	*	*	*	*	*	*	*Xtremolo	*	*	*	*
=75	=75	=75	=75	=75	=75	=75	=75	=75	=75	=75	=75	=75	=75	=75	=75	=75	=75	=75	=75
*	*	*	*	*	*	*	*	*	*	*	*	*	*tremolo	*	*	*	*	*	*
16A-\LL	.	16a-|>\LL	.	16cc/LL	.	16ee-\KL]	.	2ryy	2ryy	2ryy	4r	.	8E-/L	.	8e-\L	.	8cc\L	.	2ryy
16B-\	.	16c\	.	16a-/	.	8ee-\	.	.	.	.	.	.	.	.	.	.	.	.	.
16c\	.	(16c\	.	(16a-/	.	.	.	.	.	.	.	.	8E-/	.	8e-\	.	8ee-\J	.	.
16B-\JJ	.	16B-\JJ)	.	16g/JJ)	.	8ee-\	.	.	.	.	.	.	.	.	.	.	.	.	.
16B-\LL	.	(16B-/LL	.	16g/LL	.	.	.	.	.	.	8ee-\	in	8E-/	.	8e-\	.	4ee-\	.	.
16An\	.	16An/)	.	16f/	.	8ee-\	.	.	.	.	.	.	.	.	.	.	.	.	.
16A\	.	(16A/	.	(16f/	.	.	.	.	.	.	8ee-\	ex-	8E-/J	.	8e-\J	.	.	.	.
16B-\JJ	.	16B-/JJ)	.	16g/JJ)	.	16ee-\Jk	.	.	.	.	.	.	.	.	.	.	.	.	.
*	*	*	*	*	*	*	*	*	*	*	*	*	*Xtremolo	*	*	*	*	*	*
=76	=76	=76	=76	=76	=76	=76	=76	=76	=76	=76	=76	=76	=76	=76	=76	=76	=76	=76	=76
!	!	!	!	!	!	!	!	!	!	!	!LO:TX:a:t=P:problem=w źródle takt ad libitum	!	!	!	!	!	!	!	!
!	!	!	!	!	!	!	!	!	!	!	!LO:TX:t=P:problem=takt uzupełniony na ostatniej pięciolinii	!	!	!	!	!	!	!	!
8B-\	.	4B-/	.	4g/	.	4ee-\	.	1.ryy	1.ryy	1.ryy	32dd\LLL	-cel-	4e-\	.	4g;\	.	4ee-\	.	1.ryy
.	.	.	.	.	.	.	.	.	.	.	32ee-\	.	.	.	.	.	.	.	.
.	.	.	.	.	.	.	.	.	.	.	32dd\	.	.	.	.	.	.	.	.
.	.	.	.	.	.	.	.	.	.	.	32ee-\JJJ	.	.	.	.	.	.	.	.
8ryy	.	.	.	.	.	.	.	.	.	.	32ff\LLL	.	.	.	.	.	.	.	.
.	.	.	.	.	.	.	.	.	.	.	32gg\	.	.	.	.	.	.	.	.
.	.	.	.	.	.	.	.	.	.	.	32ff\	.	.	.	.	.	.	.	.
.	.	.	.	.	.	.	.	.	.	.	32gg\JJJ	.	.	.	.	.	.	.	.
4ryy	.	4ryy	.	4ryy	.	4ryy	.	.	.	.	32aa-\LLL	.	4ryy	.	4ryy	.	4ryy	.	.
.	.	.	.	.	.	.	.	.	.	.	32gg\	.	.	.	.	.	.	.	.
.	.	.	.	.	.	.	.	.	.	.	32ff\	.	.	.	.	.	.	.	.
.	.	.	.	.	.	.	.	.	.	.	32ee-\JJJ	.	.	.	.	.	.	.	.
.	.	.	.	.	.	.	.	.	.	.	32dd\LLL	.	.	.	.	.	.	.	.
.	.	.	.	.	.	.	.	.	.	.	32cc\	.	.	.	.	.	.	.	.
.	.	.	.	.	.	.	.	.	.	.	32b-\	.	.	.	.	.	.	.	.
.	.	.	.	.	.	.	.	.	.	.	32a-\JJJ	.	.	.	.	.	.	.	.
4ryy	.	4ryy	.	4ryy	.	4ryy	.	.	.	.	16g\LL	.	4ryy	.	4ryy	.	4ryy	.	.
.	.	.	.	.	.	.	.	.	.	.	16b-\	.	.	.	.	.	.	.	.
.	.	.	.	.	.	.	.	.	.	.	16ee-\	.	.	.	.	.	.	.	.
.	.	.	.	.	.	.	.	.	.	.	16gg\JJ	.	.	.	.	.	.	.	.
4ryy	.	4ryy	.	4ryy	.	4ryy	.	.	.	.	16bb-\LL	.	4ryy	.	4ryy	.	4ryy	.	.
.	.	.	.	.	.	.	.	.	.	.	16gg\	.	.	.	.	.	.	.	.
.	.	.	.	.	.	.	.	.	.	.	16aa-\	.	.	.	.	.	.	.	.
.	.	.	.	.	.	.	.	.	.	.	16ff\JJ	.	.	.	.	.	.	.	.
4ryy	.	4ryy	.	4ryy	.	4ryy	.	.	.	.	8.ee-\L	.	4ryy	.	4ryy	.	4ryy	.	.
.	.	.	.	.	.	.	.	.	.	.	16ff\Jk	.	.	.	.	.	.	.	.
!	!	!	!	!	!	!	!	!	!	!	!	!	!LO:TX:a:t=al Segno.	!	!LO:TX:a:t=Dal Segno	!	!LO:TX:a:t=Dal Segno.	!	!
!	!	!	!	!	!	!	!	!	!	!	!LO:TX:a:B:t=t	!	!	!	!	!	!	!	!
8r;	.	4r;	.	4r;	.	4r;	.	.	.	.	8.ff\L	.	4r;	.	4r	.	4r;	.	.
8BB-T/	.	.	.	.	.	.	.	.	.	.	.	.	.	.	.	.	.	.	.
.	.	.	.	.	.	.	.	.	.	.	48ee-\LL	.	.	.	.	.	.	.	.
.	.	.	.	.	.	.	.	.	.	.	48ff\	.	.	.	.	.	.	.	.
.	.	.	.	.	.	.	.	.	.	.	48gg\JJJ	.	.	.	.	.	.	.	.
=77	=77	=77	=77	=77	=77	=77	=77	=77	=77	=77	=77	=77	=77	=77	=77	=77	=77	=77	=77
!	!	!	!	!	!	!LO:TX:t=P:problem=mixed beam	!	!	!	!	!	!	!	!	!	!	!	!	!
8E-\L	.	8e-\L	.	8g/L	.	16e-\LL	.	2ryy	2ryy	2ryy	4ee-\	-sis	8ryy	.	8ryy	.	8ryy	.	2ryy
.	.	.	.	.	.	16ee-\	.	.	.	.	.	.	.	.	.	.	.	.	.
8G\	.	8B-\	.	8b-/	.	16.ee-T\	.	.	.	.	.	.	8G/Lyy	.	8e-\Lyy	.	8b-\Lyy	.	.
.	.	.	.	.	.	64dd\LL	.	.	.	.	.	.	.	.	.	.	.	.	.
.	.	.	.	.	.	64ee-\JJJJ	.	.	.	.	.	.	.	.	.	.	.	.	.
8F\	.	8B-\	.	8a-/	.	16ff\LL	.	.	.	.	4r	.	8B-/yy	.	8f\yy	.	8b-\yy	.	.
.	.	.	.	.	.	16b-\	.	.	.	.	.	.	.	.	.	.	.	.	.
8E-\J	.	8B-\J	.	8g/J	.	16gg\	.	.	.	.	.	.	8e-/Jyy	.	8g\Jyy	.	8b-\Jyy	.	.
.	.	.	.	.	.	16b-\JJ	.	.	.	.	.	.	.	.	.	.	.	.	.
=78	=78	=78	=78	=78	=78	=78	=78	=78	=78	=78	=78	=78	=78	=78	=78	=78	=78	=78	=78
4D\	.	4B-/	.	4f/	.	(16bb-\LL	.	2ryy	2ryy	2ryy	0r	.	4B-/yy	.	4f\yy	.	4b-\yy	.	2ryy
.	.	.	.	.	.	16aa-X\)	.	.	.	.	.	.	.	.	.	.	.	.	.
.	.	.	.	.	.	16ff\	.	.	.	.	.	.	.	.	.	.	.	.	.
.	.	.	.	.	.	16ff\JJ	.	.	.	.	.	.	.	.	.	.	.	.	.
8r	.	8r	.	8r	.	16ee-\LL	.	.	.	.	.	.	8ryy	.	8ryy	.	8ryy	.	.
.	.	.	.	.	.	16dd\	.	.	.	.	.	.	.	.	.	.	.	.	.
8BB-/	.	8B-/	.	8f/	.	16cc\	.	.	.	.	.	.	8B-/yy	.	8f\yy	.	8b-\yy	.	.
.	.	.	.	.	.	16b-\JJ	.	.	.	.	.	.	.	.	.	.	.	.	.
=79	=79	=79	=79	=79	=79	=79	=79	=79	=79	=79	=79	=79	=79	=79	=79	=79	=79	=79	=79
*	*	*tremolo	*	*	*	*	*	*	*	*	*	*	*	*	*	*	*tremolo	*	*
!	!	!	!	!	!	!LO:TX:t=P:problem=mixed beam	!	!	!	!	!	!	!LO:TX:t=P:problem=mixed beam	!	!	!	!	!	!
8E-\L	.	8B-/L	.	8g/L	.	16e-\LL	.	2ryy	2ryy	2ryy	.	.	8e-/Lyy	.	8g\Lyy	.	8b-'\yyL	.	2ryy
.	.	.	.	.	.	16ee-\	.	.	.	.	.	.	.	.	.	.	.	.	.
8G\	.	8B-/	.	8b-/	.	16.ee-T\	.	.	.	.	.	.	8G/yy	.	8e-\yy	.	8b-'\yy	.	.
.	.	.	.	.	.	64dd\LL	.	.	.	.	.	.	.	.	.	.	.	.	.
.	.	.	.	.	.	64ee-\JJJJ	.	.	.	.	.	.	.	.	.	.	.	.	.
8F\	.	8B-/	.	8a-/	.	16ff\LL	.	.	.	.	.	.	8B-/yy	.	8f\yy	.	8b-'\yy	.	.
.	.	.	.	.	.	16b-\	.	.	.	.	.	.	.	.	.	.	.	.	.
8E-\J	.	8B-/J	.	8g/J	.	16gg\	.	.	.	.	.	.	8e-/Jyy	.	8g\Jyy	.	8b-'\yyJ	.	.
.	.	.	.	.	.	16b-\JJ	.	.	.	.	.	.	.	.	.	.	.	.	.
*	*	*Xtremolo	*	*	*	*	*	*	*	*	*	*	*	*	*	*	*Xtremolo	*	*
=80	=80	=80	=80	=80	=80	=80	=80	=80	=80	=80	=80	=80	=80	=80	=80	=80	=80	=80	=80
4D\	.	4B-/	.	4f/	.	(16bb-\LL	.	2ryy	2ryy	2ryy	.	.	4B-/yy	.	4f\yy	.	4b-\yy	.	2ryy
.	.	.	.	.	.	16aa-\)	.	.	.	.	.	.	.	.	.	.	.	.	.
.	.	.	.	.	.	16ff\	.	.	.	.	.	.	.	.	.	.	.	.	.
.	.	.	.	.	.	16dd\JJ	.	.	.	.	.	.	.	.	.	.	.	.	.
8r	.	8r	.	8r	.	16b-/LL	.	.	.	.	.	.	8ryy	.	8ryy	.	8ryy	.	.
.	.	.	.	.	.	16a-/	.	.	.	.	.	.	.	.	.	.	.	.	.
8D\	.	8B-/	.	8f/	.	16f/	.	.	.	.	.	.	8B-/yy	.	8f\yy	.	8b-\yy	.	.
.	.	.	.	.	.	16a-/JJ	.	.	.	.	.	.	.	.	.	.	.	.	.
=81	=81	=81	=81	=81	=81	=81	=81	=81	=81	=81	=81	=81	=81	=81	=81	=81	=81	=81	=81
!	!	!LO:TX:t=P:problem=mixed beam	!	!LO:TX:t=P:problem=mixed beam	!	!	!	!	!	!	!	!	!	!	!	!	!	!	!
8E-\L	.	8e-\L	.	8e-/L	.	16g\LL	.	2ryy	2ryy	2ryy	.	.	8e-\yy	.	8g\yy	.	8b-\yy	.	2ryy
.	.	.	.	.	.	16ee-\	.	.	.	.	.	.	.	.	.	.	.	.	.
8G\	.	8G/	.	8e-/	.	16dd\	.	.	.	.	.	.	8ryy	.	8ryy	.	4ryy	.	.
.	.	.	.	.	.	16cc\JJ	.	.	.	.	.	.	.	.	.	.	.	.	.
8A-\	.	8A-/	.	8e-/	.	16bn\LL	.	.	.	.	.	.	4ryy	.	4ryy	.	.	.	.
.	.	.	.	.	.	16cc\	.	.	.	.	.	.	.	.	.	.	.	.	.
8A-\J	.	8A-/J	.	8ee-\J	.	16aa-\	.	.	.	.	.	.	.	.	.	.	8ryy	.	.
.	.	.	.	.	.	16ff\JJ	.	.	.	.	.	.	.	.	.	.	.	.	.
=82	=82	=82	=82	=82	=82	=82	=82	=82	=82	=82	=82	=82	=82	=82	=82	=82	=82	=82	=82
!LO:TX:t=P:problem=mixed beam	!	!	!	!	!	!	!	!	!	!	!	!	!	!	!	!	!	!	!
8B-\L	.	8B-\L	.	8g/L	.	8ee-\L	.	2ryy	2ryy	2ryy	0r	.	4G/yy	.	4e-\yy	.	4ee-\yy	.	2ryy
8B-\	.	8e-\	.	8g/	.	(32ee-\LL	.	.	.	.	.	.	.	.	.	.	.	.	.
.	.	.	.	.	.	32ff\	.	.	.	.	.	.	.	.	.	.	.	.	.
.	.	.	.	.	.	32ee-\	.	.	.	.	.	.	.	.	.	.	.	.	.
.	.	.	.	.	.	32ff\JJJ)	.	.	.	.	.	.	.	.	.	.	.	.	.
8BB-/	.	8d\	.	8a-/	.	4ffT\	.	.	.	.	.	.	4B-/yy	.	4f\yy	.	4dd\yy	.	.
8BB-/J	.	8d\J	.	8a-/J	.	.	.	.	.	.	.	.	.	.	.	.	.	.	.
=83	=83	=83	=83	=83	=83	=83	=83	=83	=83	=83	=83	=83	=83	=83	=83	=83	=83	=83	=83
!	!	!LO:TX:t=P:problem=mixed beam	!	!	!	!LO:TX:t=P:problem=mixed beam	!	!	!	!	!	!	!	!	!	!	!	!	!
8E-\L	.	8e-\L	.	8g/L	.	(16ee-\LL	.	2ryy	2ryy	2ryy	.	.	8G/yy	.	8e-\yy	.	8ee-\yy	.	2ryy
.	.	.	.	.	.	16e-/)	.	.	.	.	.	.	.	.	.	.	.	.	.
8E-\	.	8G/	.	8e-/	.	16ee-|>\	.	.	.	.	.	.	8ryy	.	8ryy	.	8ryy	.	.
.	.	.	.	.	.	16ee-|>\JJ	.	.	.	.	.	.	.	.	.	.	.	.	.
8A-\	.	8A-/	.	8e-/	.	16dd\LL	.	.	.	.	.	.	4ryy	.	4ryy	.	4ryy	.	.
.	.	.	.	.	.	16cc\	.	.	.	.	.	.	.	.	.	.	.	.	.
8A-\J	.	8A-/J	.	8e-/J	.	16b-\	.	.	.	.	.	.	.	.	.	.	.	.	.
.	.	.	.	.	.	16a-\JJ	.	.	.	.	.	.	.	.	.	.	.	.	.
=84	=84	=84	=84	=84	=84	=84	=84	=84	=84	=84	=84	=84	=84	=84	=84	=84	=84	=84	=84
!LO:TX:t=P:problem=mixed beam	!	!	!	!	!	!LO:TX:t=P:problem=mixed beam	!	!	!	!	!	!	!LO:SIC:v:s=4ee\yy	!	!	!	!	!	!
8B-\L	.	8B-\L	.	8g/L	.	24g/LL	.	2ryy	2ryy	2ryy	.	.	4A-/yy	.	4e-\yy	.	4ee-\yy	.	2ryy
.	.	.	.	.	.	24ee-\	.	.	.	.	.	.	.	.	.	.	.	.	.
.	.	.	.	.	.	24gg\JJ	.	.	.	.	.	.	.	.	.	.	.	.	.
8B-\	.	8e-\	.	8g/	.	24bb-\LL	.	.	.	.	.	.	.	.	.	.	.	.	.
.	.	.	.	.	.	24gg\	.	.	.	.	.	.	.	.	.	.	.	.	.
.	.	.	.	.	.	24ee-\JJ	.	.	.	.	.	.	.	.	.	.	.	.	.
8BB-/	.	8d\	.	8a-/	.	4ffT\	.	.	.	.	.	.	4B-/yy	.	4f\yy	.	4dd\yy	.	.
8BB-/J	.	8d\J	.	8a-/J	.	.	.	.	.	.	.	.	.	.	.	.	.	.	.
=85	=85	=85	=85	=85	=85	=85	=85	=85	=85	=85	=85	=85	=85	=85	=85	=85	=85	=85	=85
!	!	!	!LO:DY:a	!	!LO:DY:a	!LO:TX:t=P:problem=mixed beam	!	!	!	!	!	!	!LO:TX:t=P:problem=mixed beam	!	!	!	!	!	!
8E-\	.	8e-\	p	8g/L	p	8ee-\L	p	2ryy	2ryy	2ryy	.	.	8G/Lyy	.	8e-\Lyy	.	8ee-\Lyy	.	2ryy
8r	.	8r	.	16e-/L	.	16g/L	.	.	.	.	.	.	16e-/Lyy	.	16g\Lyy	.	16ee-\Lyy	.	.
.	.	.	.	16f/JJ	.	16a-/JJ	.	.	.	.	.	.	16f/JJyy	.	16a-\JJyy	.	16ff\JJyy	.	.
4r	.	8E-/	.	8e-/L	.	8g/L	.	.	.	.	.	.	8e-\Lyy	.	8g\Lyy	.	8ee-\Lyy	.	.
.	.	8r	.	8f/J	.	8a-/J	.	.	.	.	.	.	8f\Jyy	.	8a-\Jyy	.	8ff\Jyy	.	.
=86	=86	=86	=86	=86	=86	=86	=86	=86	=86	=86	=86	=86	=86	=86	=86	=86	=86	=86	=86
!	!LO:DY:a	!	!	!	!	!	!	!	!	!	!	!	!	!	!	!	!	!	!
8E-\	p	8E-/	.	8.g/L	.	8.b-/L	.	2ryy	2ryy	2ryy	1r	.	8.g\Lyy	.	8.b-\Lyy	.	8.gg\Lyy	.	2ryy
8r	.	8r	.	.	.	.	.	.	.	.	.	.	.	.	.	.	.	.	.
.	.	.	.	16e-/Jk	.	16g/Jk	.	.	.	.	.	.	16e-\Jkyy	.	16g\Jkyy	.	16ee-\Jkyy	.	.
8BB-/	.	8B-/	.	16g/LL	.	16b-/LL	.	.	.	.	.	.	16g\LLyy	.	16b-\LLyy	.	16gg\LLyy	.	.
.	.	.	.	16f/	.	16a-/	.	.	.	.	.	.	16f\yy	.	16a-\yy	.	16ff\yy	.	.
8r	.	8r	.	16e-/	.	16g/	.	.	.	.	.	.	16e-\yy	.	16g\yy	.	16ee-\yy	.	.
!	!	!	!	!	!	!	!	!	!	!	!	!	!LO:SIC:v:s=16B-\JJyy	!	!	!	!	!	!
.	.	.	.	16B-/JJ	.	16f/JJ	.	.	.	.	.	.	16c\JJyy	.	16f\JJyy	.	16dd\JJyy	.	.
=87	=87	=87	=87	=87	=87	=87	=87	=87	=87	=87	=87	=87	=87	=87	=87	=87	=87	=87	=87
!LO:TX:t=P:problem=mixed beam	!	!LO:TX:t=P:problem=mixed beam	!	!	!	!	!	!	!	!	!	!	!	!	!	!	!	!	!
8E-\L	.	8e-\L	.	8G/L	.	8e-/L	.	2ryy	2ryy	2ryy	.	.	8G/Lyy	.	8e-\Lyy	.	8ee-\Lyy	.	2ryy
8BB-/	.	8E-/	.	8B-/	.	8g/	.	.	.	.	.	.	8B-/yy	.	8g\yy	.	8b-\Jyy	.	.
!	!	!	!	!	!	!	!	!	!	!	!	!	!	!	!	!LO:DY:a	!	!	!
8EE-/J	.	8E-/J	.	8G/J	.	8e-/J	.	.	.	.	.	.	8G/Jyy	.	8e-\Jyy	f	8g/yy	.	.
!	!	!	!	!	!	!	!	!	!	!	!	!	!LO:TX:t=P:problem=podwójna fermata na podwójnej kresce taktowej	!	!LO:TX:t=P:problem=podwójna kreska taktowa	!	!LO:TX:t=P:problem=podwójna fermata na podwójnej kresce taktowej	!	!
8r	.	8r	.	8r	.	8r	.	.	.	.	.	.	8ryy	.	8ryy	.	8ryy	.	.
==	==	==	==	==	==	==	==	==	==	==	==	==	==	==	==	==	==	==	==
*-	*-	*-	*-	*-	*-	*-	*-	*-	*-	*-	*-	*-	*-	*-	*-	*-	*-	*-	*-
!!title: @{OTL};
!!!RDF**kern: > = above
!!!RDF**kern: < = below
!!!RDF**dynam: > = "Dim:", fontstyle= "bold-italic"
!!!RDF**dynam: < = "Cres:", fontstyle= "bold-italic"
!!!RDF**kern: | = vertical stroke
!!!RDF**kern: N = linked
!!!RDF**kern: i = editorial accidental
!!!RDF**kern: l = terminal long
!!!ENC: Katarzyna Serwa
!!!END: 2020-09-26
!!!EED: Wojciech Jakubiak-Danek
!!!EST: 2022-02-02
!!!URL-scan: http://repozytorium.nifc.pl/skany/pl-cz-nut--iii-563
!!!ONB-nifc: UWAGA: części Mszy: Kyrie, Gloria, Credo, Et incarnatus, Et resurrexit, Sanctus, Pleni sunt, Benedictus, Agnus Dei, Dona nobis
